!!!!SEGMENT: pl-wumfc--n68232--025_moniuszko-stanislaw--paria-wyciag-fortepianowy-akt-iii-balet.krn
!!!cenid: 18xx:4155
!!!COM: Moniuszko, Stanisław
!!!COM-rismID: pe30008351
!!!CDT: 1819/05/05-1872/06/04
!!!CNT: Polish
!!!GTL: Paria – wyciąg fortepianowy
!!!OTL: Akt III. Balet
!!!OMV: 025
!!!PDT:
!!!AGN:
!!!SMS-siglum: PL-Wumfc
!!!SMS-shelfmark: N68232
!!!SMS-shelfwork: 001-025 G
!!!SMS-variant:
!!!SMS-altvar:
!!!NIFC-rismSourceID: 1001171381
!!!NIFC-rismChildID: 1001171381
!!!NIFC-islandoraID: pl-wumfc:7210
!!!URL-pdf-islandora: https://repozytorium.nifc.pl/islandora/object/pl-wumfc%3A7210/datastream/PDF/view
!!!URL-scan: https://polish.musicsources.pl/pl/lokalizacje/galeria/druki-muzyczne/12634/1 @EN{Scan on Polish Music Sources Website} @PL{Skany w portalu Dziedzictwo Muzyki Polskiej w otwartym dostępie}
!!!IIIF:
!!!ONB-nifc: UWAGA: str. 97-101. Uwaga: proszę w pliku umieszczać obsadę, która występuje tylko w danej części.
!!!AIN: 2 piano
!!!key:
**kern	**kern	**dynam
*part2	*part1	*part1
*staff2	*staff1	*
*I"[Piano]	*I"[Piano]	*
*I'[pf]	*I'[pf]	*
*ICklav	*ICklav	*
*Ipiano	*Ipiano	*
*clefF4	*clefG2	*
*k[f#]	*k[f#]	*
*G:	*G:	*
*M4/4	*M4/4	*
*met(c)	*met(c)	*
!	!LO:TX:a:B:t=Lento	!
16BB\ 16B	16b\ 16bb	ff
=1	=1	=1
4..BB\ 4..B	4..b\ 4..bb	.
16GG/ 16G	16g\ 16gg	.
8.FF#/L 8.F#	8.f#/L 8.ff#	.
16EE/k 16E	16e/k 16ee	.
8.GG/ 8.G	8.g/ 8.gg	.
16EE/Jk 16E	16e/Jk 16ee	.
=2	=2	=2
8BBB/ 8BB	8b\	.
8r	8r	.
8GGG/ 8GG	8e/ 8b 8ee	.
8r	8r	.
8AAA/ 8AA	8ee\ 8ff# 8aa 8ccc	.
8r	8r	.
8BBB/ 8BB	8b\ 8dd#X 8ff# 8bb	.
8r	8ryy	.
=3||	=3||	=3||
*M6/8	*M6/8	*
!LO:TX:b:i:t=sempre legato	!LO:TX:a:B:t=Andantino	!
8EE/ 8E	2.r	.
(8B\L	.	.
8e\J	.	.
8g\L	.	.
8e\	.	.
8B\J)	.	.
=4	=4	=4
(8E\L 8G	4r	.
8B\	.	.
8e\J	8r	.
8g\L	4r	.
8e\	.	.
8B\J)	16r	.
!	!LO:TX:a:t=Fl. ed Ob.	!
.	16b\	.
!!LO:LB:g=original	!	!
=5	=5	=5
!	!LO:TX:b:i:t=cantabile	!
(8E\L 8G	([4b\	.
8B\	.	.
8e\J	16b\LL]	.
.	16ee\JJ	.
8g\L	[4gg\	.
8e\	.	.
8B\J)	16gg\LL]	.
.	16aa\JJ)	.
=6	=6	=6
(8E\L 8G	[4.bb\	.
8B\	.	.
8e\J	.	.
8g\L	(4bb\]	.
8e\	.	.
8B\J)	8gg\)	.
=7	=7	=7
.	(8qqff#/L	.
.	8qqgg/J	.
(8E\L 8G	(4ff#\)	.
8B\	.	.
8e\J	8ee\	.
8g\L	4gg\	.
8e\	.	.
8B\J)	8ee\	.
=8	=8	=8
(8E\L 8G	[4.b\	.
8B\	.	.
8e\J	.	.
8g\L	4b\]	.
8e\	.	.
8B\J)	8cc#X\)	.
=9	=9	=9
!	!LO:TUP:a	!
(8E\L 8G	(24dd#X\LL	.
.	24ee\	.
.	24dd#\J	.
8B\	8cc#X\	.
8e\J	8dd#\J	.
8g\L	4ee\	.
8e\	.	.
8B\J)	8cc#\	.
!!LO:LB:g=original	!	!
=10	=10	=10
8E\L 8F#	16dd#X\LL	.
.	16cc#X\JJ	.
8B\	[4b\	.
8d#X\J	.	.
8f#\L	4b\])	.
8d#\	.	.
8B\J	(8cc#\	.
=11	=11	=11
8E\L 8F#	4dd#X\	.
8B\	.	.
8d#X\J	8ee\)	.
8f#\L	(8ff#\L	.
8d#\	8gg\)	.
8B\J	8aa\J	.
=12	=12	=12
8E\L 8G	[4.gg\	.
8B\	.	.
8e\J	.	.
8g\L	8gg\]	.
8e\	8r	.
8B\J	8ee\	.
=13	=13	=13
(8E\L 8G	([4b\	.
8B\	.	.
8e\J	16b\LL]	.
.	16ee\JJ	.
8g\L	[4gg\	.
8e\	.	.
8B\J)	16gg\LL]	.
.	16aa\JJ)	.
=14	=14	=14
(8GG/ 8BB 8G	[4.bb\	.
8B\L	.	.
8d\J	.	.
8g\L	(4bb\]	.
8d\	.	.
8B\J)	8gg\)	.
!!LO:LB:g=original	!	!
=15	=15	=15
!	!LO:TUP:a	!
8G\L 8A	(24ff#\LL	.
.	24gg\	.
.	24ff#\J	.
8c#X\	8ee\	.
8e\J	8ff#\J	.
8a\L	4gg\	.
8e\	.	.
8c#\J	8ee\	.
=16	=16	=16
.	(16qqff#y/L	.
.	16qqee/J	.
8D\ 8F# 8A	[4.dd\)	.
8A\L	.	.
8d\J	.	.
8f#\L	8dd\])	.
8d\	8r	.
!	!LO:TX:a:t=V. I.	!
8A\J	(8aa\	.
=17	=17	=17
8D\ 8F# 8cn	[4ff#\	.
8d\L	.	.
8f#\J	16ff#\LL]	.
.	16ee\JJ	.
8a\L	[4dd\	.
8f#\	.	.
8d\J	16dd\LL]	.
.	16ddd\JJ	.
=18	=18	=18
8D\ 8G 8B	[4.bb\	.
*clefG2	*	*
8d/L	.	.
8g/J	.	.
8b/L	4bb\])	.
8g/	.	.
!	!LO:TX:a:t=Ob.	!
8d/J	(8gg\	.
*clefF4	*	*
=19	=19	=19
*^	*^	*
8BB\ 8D#X 8F# 8B	4.ryy	8ff#\L	4.ryy	.
*clefG2	*	*	*	*
8f#/L	.	8ee\	.	.
8b/J	.	8ff#\J	.	.
*clefF4	*	*	*	*
8G/L	4E\	4gg/	4.g\	.
8B/	.	.	.	.
8c#X/J	8A\	8ee/	.	.
*v	*v	*	*	*
!!LO:LB:g=original	!	!	!
=20	=20	=20	=20
8D\L	16ff#/LL	4.f#\	.
.	16ee/JJ	.	.
8A\	[4dd/	.	.
8d\J	.	.	.
8f#\L	8dd/])	4rd	.
8d\	8rcc	.	.
!	!LO:TX:a:t=V. I.	!	!
8G\J	(8aa\	8ryy	.
=21	=21	=21	=21
8D\L	4ffn\	2.ryy	<
8A\	.	.	.
8d\J	8ee\	.	.
8fn\L	4dd\	.	.
8d\	.	.	.
8G\J	8ddd\	.	[[
=22	=22	=22	=22
8AA\ 8A	[4.ccc/	[4.cc\	sf >
8c\L	.	.	.
8e\J	.	.	]
8a\L	4ccc/]	8cc\L]	.
8e\	.	8ee\	.
8c\J	8aa/	8aa\J)	.
*	*v	*v	*
=23	=23	=23
*^	*	*
8BB/	4.ryy	8g\L 8gg	pp
8B\L	.	8f#\ 8ff#	.
8e\J	.	8g\J 8gg	.
.	.	8qb/	.
*clefG2	*	*	*
8d#X/L	4.B\	([4bb\	.
8f#/	.	.	.
8b/J	.	32bb\LLL]	.
.	.	32aa\	.
.	.	32gg\	.
.	.	32ff#\JJJ)	.
*v	*v	*	*
*clefF4	*	*
=24	=24	=24
*	*^	*
4.C\ 4.E 4.G	[4.ee/	8re	.
.	.	8e\L	<
.	.	8g\J	.
8GG/ 8BB 8E	4ee/]	8e\L	.
8B\L	.	8b\	.
8e\J	(8eee/	8ee\J	[
!!LO:LB:g=original	!	!	!
=25	=25	=25	=25
*^	*	*	*
8AA/ 8E	8ryy	4ccc/	4cc\	f
8e/L	4c\	.	.	.
8f#/J	.	8aa/	8a\	.
8BB\ 8D#X 8F# 8B	4ryy	4ff#/	4f#\	>
8d#X\L	.	.	.	.
8B\J	8ryy	8bb/	8b\	]]
*v	*v	*	*	*
=26	=26	=26	=26
8C\L	[4.ee/	8e\L	.
8G\	.	8g\	.
8C\J	.	8e\J	.
8GG\L	4ee/])	8b\L	.
8B\	.	8e\	.
8G\J	8eee/	8ee\J	pp
=27	=27	=27	=27
8AA/	(4ccc/	4cc\	.
8e\L	.	.	.
8c\J	8aa/	8a\	.
8FF#/ 8F#	8ee/L	8e\L	.
8c\L	8aa/	8a\	.
8e\J	8ccc/J)	8cc\J	.
*	*v	*v	*
=28	=28	=28
.	8qb/	.
4BB\ 4B	2.bbtt\	.
8r	.	.
*clefG2	*	*
8f#'/L 8a	.	.
8B'/	.	.
((8f#/J 8a	.	.
=29	=29	=29
8e/L)) 8g	2.bbttt\	.
8B'/	.	.
((8e/J 8g	.	.
8c#X/L)) 8e	.	.
8B'/	.	.
((8c#/J 8e	.	.
!!LO:PB:g=original	!	!
=30	=30	=30
8d#X/L)) 8f#	4.bbtt\	.
8B'/	.	.
((8d#/J 8f#	.	.
8e/L)) 8g	8bb\L	.
8B'/J	8bb\J	.
8r	8b\ 8gg	.
*clefF4	*	*
=31	=31	=31
*	*^	*
2.BB/	(8ff#/L	4.a#X\	.
.	8cc#X/	.	.
.	8ee/J	.	.
.	4.dd#X/)	(8an\L	.
.	.	8f#\	.
.	.	8b\J)	.
*	*v	*v	*
=32	=32	=32
8E\L 8G	(4b\ 4bb	.
8B\	.	.
8e\J	8ee\ 8eee	.
8g\L	4gg\)	.
8e\	.	.
8B\J	8a\ 8aa	.
=33	=33	=33
8E\L 8G	[4.b\ [4.bb	.
8B\	.	.
8e\J	.	.
8g\L	4b\] 4bb]	.
8e\	.	.
8B\J	8g\ 8gg	.
=34	=34	=34
8E\L 8G	(4f#\ 4ff#	.
8B\	.	.
8e\J	8ee\	.
8g\L	4gg\	.
8e\	.	.
8B\J	8ee\)	.
!!LO:LB:g=original	!	!
=35	=35	=35
8E\L 8G	([4.b\	.
8B\	.	.
8e\J	.	.
8g\L	4b\]	.
8e\	.	.
8B\J	8cc#X\)	.
=36	=36	=36
!	!LO:TUP:a	!
8E\L 8G	(24dd#X\LL	<
.	24ee\	.
.	24dd#\J	.
8B\	8cc#X'\	.
8e\J	8dd#'\J)	.
8g\L	(8ee\L	.
8e\	8gg\)	.
8B\J	8bb\J	[[
=37	=37	=37
*^	*	*
8AA\ 8C 8E 8A	4.ryy	([4.bb\	>
8e\L	.	.	.
8a\J	.	.	.
8c/L	4.A\	8.bb\L]	.
8e/	.	.	]
.	.	16aa\L	.
8a/J	.	16gg\	.
.	.	16ff#\JJ)	.
*v	*v	*	*
=38	=38	=38
*	*^	*
8BB\L 8G	(8ee\L	4.ryy	.
8B\	8b\ 8dd#X	.	.
8B\J	8g\J) 8ee	.	.
8BB\L 8B	(4ff#/	8a\L	.
8B\	.	8f#\	.
8B\J	8b/)	8d#X\J	.
*	*v	*v	*
!!LO:LB:g=original	!	!
=39	=39	=39
8E\L	8g'\ 8gg	.
!	!LO:TX:b:i:t=leggieriss.	!
8G\ 8B 8e	8aa#X'\L	.
8G\J 8B 8e	8bb'\J	.
!	!LO:TUP:a:problem:klamra łukowa	!
8E\L	24ccc\LL	.
.	24ddd\	.
.	24ccc\JJ	.
8G\ 8B 8e	8bb'\L	.
8G\J 8B 8e	8aa#'\J	.
!!LO:LB:g=original	!	!
=40	=40	=40
!	!LO:TUP:a:problem:klamra łukowa	!
8E\L	24aan\LL	.
.	24bb\	.
.	24aa\JJ	.
8G\ 8B 8e	8gg'\L	.
8G\J 8B 8e	8ff#'\J	.
!	!LO:TUP:a:problem:klamra łukowa	!
8E\L	24ff#\LL	.
.	24gg\	.
.	24ff#\JJ	.
8G\ 8B 8e	8ee'\L	.
8G\J 8B 8e	8dd'\J	.
=41	=41	=41
8E\L	8cc\	.
8A\ 8c 8e	8ddd#X\L	.
8A\J 8c 8e	8eee\J	.
8E\L	8.fff#\L	.
8A\ 8c 8e	.	.
.	16eee\k	.
8A\J 8c 8e	8dddn\J	.
=42	=42	=42
!	!LO:TUP:a:problem:klamra łukowa	!
8E\L	24ccc\LL	.
.	24ddd\	.
.	24ccc\JJ	.
8A\ 8c 8e	8bb'\L	.
8A\J 8c 8e	8aa'\J	.
!	!LO:TUP:a:problem:klamra łukowa	!
8E\L	24aa\LL	.
.	24bb\	.
.	24aa\JJ	.
8A\ 8c 8e	8ee'\L	.
8A\J 8c 8e	8ff#'\J	.
=43	=43	=43
8E\L	8gg\	.
8G\ 8B 8e	8aa#X'\L	.
8G\J 8B 8e	8bb'\J	.
!	!LO:TUP:a:problem:klamra łukowa	!
8E\L	24ccc\LL	.
.	24ddd\	.
.	24ccc\JJ	.
8G\ 8B 8e	8bb'\L	.
8G\J 8B 8e	8aa#'\J	.
=44	=44	=44
!	!LO:TUP:a:problem:klamra łukowa	!
8E\L	24aan\LL	.
.	24bb\	.
.	24aa\JJ	.
8G\ 8B 8e	8gg'\L	.
8G\J 8B 8e	8ff#'\J	.
!	!LO:TUP:a:problem:klamra łukowa	!
8E\L	24ff#\LL	.
.	24gg\	.
.	24ff#\JJ	.
8G\ 8B 8e	8ee'\L	.
8G\J 8B 8e	8dd'\J	.
!!LO:LB:g=original	!	!
=45	=45	=45
8E\L	8cc\	.
8A\ 8c 8e	8fff#X\L	.
8A\J 8c 8e	8ggg\J	.
8E\L	8.aaa\L	.
8A\ 8c 8e	.	.
.	16ggg\k	.
8A\J 8c 8e	8fffn\J	.
=46	=46	=46
!	!LO:TUP:a:problem:klamra łukowa	!
8E\L	24ccc\LL	.
.	24ddd\	.
.	24ccc\JJ	.
8A\ 8c 8e	8bb'\L	.
8A\J 8c 8e	8aa'\J	.
!	!LO:TUP:a:problem:klamra łukowa	!
8E\L	24aa\LL	.
.	24bb\	.
.	24aa\JJ	.
8A\ 8c 8e	8ee'\L	.
8A\J 8c 8e	8ff#'\J	.
=47	=47	=47
8E\L	8gg\L	.
(8g\	8dd#X\	.
8B\J)	8ee\J	.
*tremolo	*	*
32E\LLL 32G 32A#X	8.gg\L	>
32c#X\	.	.
32E\ 32G 32A#	.	.
32c#\	.	.
32E\ 32G 32A#	.	.
32c#\	.	.
32E\ 32G 32A#	16ff#\k	]]
32c#\	.	.
32E\ 32G 32A#	8dd#\J	.
32c#\	.	.
32E\ 32G 32A#	.	.
32c#X\JJJ	.	.
=48	=48	=48
*Xtremolo	*	*
8BB\L 8D#X 8F# 8B	(>8dd#X\L	.
8BB\ 8D# 8F# 8B	8bb\)	.
8BB\J 8D# 8F# 8B	8b'\J	.
!	!LO:TUP:a:problem:klamra łukowa	!
8BB^\L 8E 8G 8B	24cc^<\LL	.
.	24dd#\	.
.	24cc\JJ	.
8BB\ 8E 8G 8B	8b'\L	.
8BB\J 8E 8G 8B	8a#X'\J	.
=49	=49	=49
*	*^	*
8BB\L 8D#X 8F# 8B	8b'\L	4.ryy	.
8B\	8dd#X'\	.	.
8G\J	8ee'\J	.	.
*tremolo	*	*	*
32BB\LLL 32E	8.gg^>/L	4.g\ 4.cc#X	.
32A#X\	.	.	.
32BB\ 32E	.	.	.
32A#\	.	.	.
32BB\ 32E	.	.	.
32A#\	.	.	.
32BB\ 32E	16ff#/k	.	.
32A#\	.	.	.
32BB\ 32E	8ee/J	.	.
32A#\	.	.	.
32BB\ 32E	.	.	.
32A#X\JJJ	.	.	.
!!LO:LB:g=original	!	!	!
=50	=50	=50	=50
*Xtremolo	*	*	*
8BB\L 8B	8f#\L 8b 8dd#X	4.ryy	.
8F#\ 8d#X	8bb\	.	.
8F#\J 8d#	(16ff#\L	.	.
.	16gg\JJ)	.	.
*	*Xtuplet	*	*
!	!LO:TUP:a:problem:klamra łukowa	!	!
8BB\L 8D#X 8F#	24aa/LL	8ff#\L	.
.	24bb/	.	.
.	24aa/J	.	.
8BB\ 8E 8G	8gg'/	8ee\	.
8BB\J 8F# 8A	8ff#'/J	8dd#\J	.
=51	=51	=51	=51
8E\ 8G	8ee\ 8gg	8ryy	.
!	!LO:TX:a:t=Arm.	!	!
8r	8a#X'\L 8aa#X	8ryy	pp
8r	8b'\J 8bb	2ryy	.
4r	(8dd\L 8ddd	.	.
.	8cc#X\J) 8ccc#X	.	.
!	!LO:TX:b:t=(pizz.)	!	!
8AA\ 8A	8g\ 8a# 8cc#X 8ee	.	.
*	*v	*v	*
=52	=52	=52
8D\ 8A	8f#/ 8a 8dd	.
8r	8g#X'\L 8gg#X	.
8r	8a'\J 8aa	.
4r	(8cc\L 8ccc	.
.	8b\J) 8bb	.
8GG/ 8G	8fn/ 8g# 8b 8dd	.
=53	=53	=53
8C\ 8G	8e/ 8g 8cc	f
8r	8d#X'/L 8dd#X	.
8r	8e'/J 8ee	.
4r;	4.g;\ 4.gg	>
8r	.	] pp
=54	=54	=54
*	*^	*
(4.CC/	([2.g/	4.G\ 4.c 4.e	.
4.GGG/ 4.GG	.	4.G\ 4.B 4.d#X	.
!!LO:LB:g=original	!	!	!
=55	=55	=55	=55
4.CC/	2.g/]	4.G\ 4.c 4.e	.
4.GGG/) 4.GG	.	4.G\ 4.B 4.d#X	.
=56	=56	=56	=56
(4.CC/	[<2.G/ [2.g	4.c\ 4.e	.
4.AAA/ 4.AA	.	4.c#X\	.
=57	=57	=57	=57
4.BBB-X/ 4.BB-X	2.G/] 2.g]	4.d\	.
4.BBBn/) 4.BBn	.	4.d#X\	.
*	*v	*v	*
=58	=58	=58
4.CC/ 4.C	8G/) 8c 8e 8g	.
.	8ff#'\L	.
.	8gg'\J	.
4.C\ 4.E 4.G 4.c	8.aa^\L	.
.	16gg\k	.
.	8ff#\J	.
=59	=59	=59
2.C\ 2.E 2.G#X 2.c	8.ff#^\L	.
.	16ee\k	.
.	8dd\J	.
.	8.dd^\L	.
.	16cc\k	.
.	8b\J	.
=60	=60	=60
2.C\ 2.E 2.A 2.c	8.b^/L	.
.	16a/k	.
.	8g/J	.
.	8.g/L	.
.	16f#/k	.
.	8e/J	.
=61	=61	=61
2.C;\ 2.E 2.A#X	(8e/L	.
.	16f#/L	.
.	16e/	.
.	16d#X/	.
.	16e/JJ)	.
.	(4gg;\	.
.	8a#X/)	.
!!LO:PB:g=original	!	!
=62||	=62||	=62||
*M3/8	*M3/8	*
!	!LO:TX:a:B:t=Scherzando e non troppo presto.	!
8BB\ 8B	8r	p
8r	8f#'/L 8a#X	.
8r	8g'/J 8b	.
=63	=63	=63
*	*^	*
*	*tuplet	*	*
8BB\L	(24cc/LL	4an\	.
.	24dd/	.	.
.	24cc/JJ	.	.
8B\	8b'/L)	.	.
8B\J	8ff#'/J	8a\	.
=64	=64	=64	=64
8BB\L	8ee'/	8g\	.
8B\	8f#'/L 8a#X	4ryy	.
8B\J	8g'/J 8b	.	.
=65	=65	=65	=65
8BB\L	(24cc/LL	4an\	.
.	24dd/	.	.
.	24cc/JJ	.	.
8B\	8b'/L)	.	.
8B\J	8ff#'/J	8a\	.
=66	=66	=66	=66
8E\L	8ee/	8g\	.
8B\	8a'\L 8ff#	4ryy	.
8B\J	8b'\J 8gg	.	.
*	*v	*v	*
=67	=67	=67
8AA\L	(8dd\L 8bb	.
8E\	8cc\) 8aa	.
8E\J	8a\J 8ff#	.
=68	=68	=68
8BB^\L	8cc'\L 8aa	.
8E\ 8B	16b'\L 16gg	.
.	16a'\J 16ff#	.
8E\J 8B	8g'\J 8ee	.
!!LO:LB:g=original	!	!
=69	=69	=69
16BB\LL 16B	16f#'\LL 16dd#X	.
16BB\J 16B	16g'\J 16ee	.
8BB\ 8B	8a'\J 8ff#	.
8BB^\J 8B	8d#X'/ 8a 8b	.
=70	=70	=70
8E^\L	8g'\ 8b 8gg	.
8B\	8f#'/L 8a#X	.
8B\J	8g'/J 8b	.
=71	=71	=71
*	*^	*
8BB\L	(24cc/LL	4an\	.
.	24dd/	.	.
.	24cc/JJ	.	.
8B\	8b'/L)	.	.
8B\J	8ff#'/J	8a\	.
=72	=72	=72	=72
8E\L	8ee/	8g\	.
8B\	8f#'/L 8a#X	4ryy	.
8B\J	8g'/J 8b	.	.
=73	=73	=73	=73
8BB\L	(24cc/LL	4an\	.
.	24dd/	.	.
.	24cc/JJ	.	.
8B\	8b'/L)	.	.
8B\J	8ff#'/J	8a\	.
=74	=74	=74	=74
8E\L	8ee'/	8g\	.
8B\	8a'\L 8ff#	4ryy	.
8B\J	8b'\J 8gg	.	.
*	*v	*v	*
=75	=75	=75
8AA\L	((8dd\L [8ee 8bb	.
8E\	8cc\)) 8ee] 8aa	.
8E\J	8a\J 8cc 8ff#	.
!!LO:LB:g=original	!	!
=76	=76	=76
8BB^\L	8cc'\L 8ee 8aa	.
8E\ 8B	16b'\L 16gg	.
.	16a'\J 16ff#	.
8E\J 8B	8g'\J 8ee	.
=77	=77	=77
16BB'\LL 16B	16f#'\LL 16dd#X	.
16BB'\J 16B	16g'\J 16ee	.
8BB'\J 8B	8a'\J 8ff#	.
8BB^'\ 8B	8d#X'/ 8a 8b	.
=78	=78	=78
8E\	8g\ 8b 8ee 8gg	mf
4C^\ 4E 4G 4c	4g\ 4cc 4ee 4gg	.
=79	=79	=79
8C\L	16cc'\LL 16ee 16aa	p
.	16gg'\	.
8G\ 8c 8e	16ffn'\	.
.	16ee'\	.
8G\J 8c 8e	16dd'\	.
.	(16cc\JJ	.
=80	=80	=80
8Fn\L	8aa\L 8ccc	.
8A\ 8c	8gg'\) 8bb	.
8A\J 8c	8ffn'\J 8aa	.
=81	=81	=81
8GG^>/	(16gg\LL 16bb	.
.	16ffn\J) 16aa	.
8G\L 8B	8ee'\ 8gg	.
8B\J 8d	8dd'\J 8ff	.
=82	=82	=82
8C'/	8cc'\ 8ee	mf
4AA\ 4C 4E 4A	4e/ 4a 4cc 4ee	.
!!LO:LB:g=original	!	!
=83	=83	=83
8AA/	16a'\LL 16cc 16ffn	p
.	16ee'\	.
8A\L 8c 8e	16dd'\	.
.	16cc'\	.
8A\J 8c 8e	16b'\	.
.	(16a\JJ	.
=84	=84	=84
8D\L	8ffn\L 8aa	.
8A\ 8d	8ee'\) 8gg	.
8A\J 8d	8dd'\J 8ff	.
=85	=85	=85
!	!LO:TUP:a:problem:klamra łukowa	!
8E^\L	24dd\LL 24ffn	.
.	24gg\	.
.	24ff\JJ	.
8c\ 8e	8g#X'\L 8ee	.
8B\J 8e	8g#'\J 8dd	.
=86	=86	=86
*^	*	*
!	!	!LO:TX:a:t=Ob.	!
8C/L	[4.FFn\	(4a/ 4cc	pp
8C/	.	.	.
8C/J	.	16g/LL 16b-X	.
.	.	16g#X/JJ) 16bn	.
=87	=87	=87	=87
8C/L	4.FF\_	(4a/ 4cc	.
8C/	.	.	.
8C/J	.	16g#X/LL 16b	.
.	.	16gn/JJ) 16b-X	.
=88	=88	=88	=88
8C/L	4.FF\_	(4fn/ 4a	.
8C/	.	.	.
8C/J	.	16g/LL 16b-X	.
.	.	16g#X/JJ) 16bn	.
=89	=89	=89	=89
8C/L	4.FF\]	(4a/ 4cc	.
8C/	.	.	.
8C/J	.	16g#X/LL 16b	.
.	.	16gn/JJ) 16b-X	.
*v	*v	*	*
!!LO:LB:g=original	!	!
=90	=90	=90
8FFn'/ 8C	8fn'/ 8a	.
8D'\L 8d	(16b-X\LL	p
.	16dd\	.
8D#X'\J 8c	16ffn\	.
.	16a\JJ)	.
=91	=91	=91
8E'\L 8B	8g#X'/	.
8C'\ 8c	(16a\LL	.
.	16cc\	.
8C#X'\J 8B-X	16ee\	.
.	16gn\JJ)	.
=92	=92	=92
8D'\L 8A	8fn'/	.
8BB-X'\ 8B-X	(16g/LL	.
.	16b-X/	.
8BBn'\J 8G	16dd/	.
.	16f/JJ)	.
=93	=93	=93
*	*^	*
8C'\L 8G	8e'/	8ryy	.
8AA'\ 8A	(16cc/LL	8fn\L	.
.	16b/	.	.
8AA#X'\J 8G	16dd/	8e\J	.
.	16cc/JJ)	.	.
=94	=94	=94	=94
8BB'\L 8F#	8b'/L	8d#X\L	.
8BB'\ 8G	8a#X'/	8e\	.
8BB'\J 8F#	8b'/J	8d#\J	.
=95	=95	=95	=95
!	!LO:TUP:a:problem:klamra łukowa	!	!
8BB'\L 8G	24cc/LL	8e\L	.
.	24dd/	.	.
.	24cc/JJ	.	.
8BB'\ 8F#	8b'/L	8d#X\	.
8BB'^\J 8A#X	8ee'/J	8g\J	.
=96	=96	=96	=96
8BB'^\L 8B	8dd#X'/L	8f#\L	.
8BB'\ 8G	8a#X'/	8e\	.
8BB'\J 8F#	8b'/J	8d\J	.
!!LO:LB:g=original	!	!	!
=97	=97	=97	=97
!	!LO:TUP:a:problem:klamra łukowa	!	!
8BB\L 8G	24cc/LL	8e\L	.
.	24dd/	.	.
.	24cc/JJ	.	.
8BB\ 8F#	8b'/L	8d#X\	.
8BB^\J 8E	8gg'/J	8a#X\J	.
*	*v	*v	*
=98	=98	=98
8BB^\ 8D#X	8b'\ 8ff#	.
(8G#X\L	16ddn'\LL 16ffn	pp
.	16dd'\ 16ff	.
8A\J	16cc#X'\ 16ee	.
.	16cc#'\JJ 16ee	.
=99	=99	=99
8F#\L	16ccn'\LL 16ee-	.
.	16cc'\ 16ee-	.
8Gn\	16b'\ 16dd	.
.	16b'\ 16dd	.
8E\J	16b-X'\ 16dd-X	.
.	16b-'\JJ 16dd-	.
=100	=100	=100
8Fn\L	16a'\LL 16cc	.
.	16a'\ 16cc	.
8D#X\	16a'\ 16b	.
.	16a'\ 16b	.
8E\J	16g'\ 16b	.
.	16g'\JJ 16b	.
=101	=101	=101
!	!LO:TUP:b:problem:klamra łukowa	!
8AA\L)	24f#/LL 24a	.
.	24b/	.
.	24a/JJ	.
8BB'\	8e'/L 8g	.
8BB'\J 8A	8d#X'/J 8f#	.
=102	=102	=102
8E\ 8G	8e/	p
8r	8f#'/L 8a#X	.
8r	8g'/J 8b	.
!!LO:PB:g=original	!	!
=103	=103	=103
*	*^	*
8BB\L	(24cc/LL	4an\	.
.	24dd/	.	.
.	24cc/JJ	.	.
8B\	8b'/L)	.	.
8B\J	8ff#'/J	8a\	.
=104	=104	=104	=104
8BB\L	8ee/	8g\	.
8B\	8f#'/L 8a#X	4ryy	.
8B\J	8g'/J 8b	.	.
=105	=105	=105	=105
8BB\L	(24cc/LL	4an\	.
.	24dd/	.	.
.	24cc/JJ	.	.
8B\	8b'/L)	.	.
8B\J	8ff#'/J	8a\	.
=106	=106	=106	=106
8E\L	8ee'/	8g\	.
8B\	8a'\L 8ff#	4ryy	.
8B\J	8b'\J 8gg	.	.
*	*v	*v	*
=107	=107	=107
8AA/L	(8dd\L 8bb	.
8E/	8cc\) 8aa	.
8E/J	8a'\J 8ff#	.
=108	=108	=108
8BB^\L	8cc'\L 8aa	.
8E\ 8B	16b'\L 16gg	.
.	16a'\J 16ff#	.
8E\J 8B	8g'\J 8ee	.
=109	=109	=109
16BB\LL 16B	16f#'/LL 16dd#X	.
16BB\J 16B	16g'/J 16ee	.
8BB\J 8B	8a'/J 8ff#	.
8BB^\ 8B	8d#X'/ 8a 8b	.
!!LO:LB:g=original	!	!
=110	=110	=110
8E^\L	8g'\ 8b 8gg	.
8B\	8f#'/L 8a#X	.
8B\J	8g'/J 8b	.
=111	=111	=111
*	*^	*
8BB\L	(24cc/LL	4an\	.
.	24dd/	.	.
.	24cc/JJ	.	.
8B\	8b'/L)	.	.
8B\J	8ff#'/J	8a\	.
=112	=112	=112	=112
8E\L	8ee/	8g\	.
8B\	8f#'/L 8a#X	4ryy	.
8B\J	8g'/J 8b	.	.
=113	=113	=113	=113
8BB\L	(24cc/LL	4an\	.
.	24dd/	.	.
.	24cc/JJ	.	.
8B\	8b'/L)	.	.
8B\J	8ff#'/J	8a\	.
=114	=114	=114	=114
8E\L	8ee'/	8g\	.
8B\	8a'\L 8ff#	4ryy	.
8B\J	8b'\J 8gg	.	.
*	*v	*v	*
=115	=115	=115
8AA/L	((8dd\L [8ee 8bb	.
8E/	8cc\)) 8ee] 8aa	.
8E/J	8a\J 8cc 8ff#	.
=116	=116	=116
8BB^\L	8cc'\L 8aa	.
8E\ 8B	16b'\L 16ee 16gg	.
.	16a'\J 16ff#	.
8E\J 8B	8g'\J 8ee	.
=117	=117	=117
16BB\LL 16B	16f#'/LL 16dd#X	.
16BB\J 16B	16g'/J 16ee	.
8BB\J 8B	8a'/J 8ff#	.
8BB^\ 8B	8d#X'/ 8a 8b	.
!!LO:LB:g=original	!	!
=118	=118	=118
8E'\ 8B	8g'\ 8b 8ee 8gg	mf
4C\ 4E 4G 4c	4g^<\ 4cc 4ee 4gg	.
=119	=119	=119
8C\L	16cc'\LL 16ee 16aa	p
.	16gg'\	.
8G\ 8c 8e	16ffn'\	.
.	16ee'\	.
8G\J 8c 8e	16dd'\	.
.	(16cc\JJ	.
=120	=120	=120
8Fn\L	8aa\L 8ccc	.
8A\ 8c	8gg'\) 8bb	.
8A\J 8c	8ffn'\J 8aa	.
=121	=121	=121
8GG^>/	(16gg\LL 16bb	.
.	16ffn\J) 16aa	.
8G\L 8B	8ee'\ 8gg	.
8B\J 8d	8dd'\J 8ff	.
=122	=122	=122
8C/	8cc\ 8ee	.
4AA^\ 4C 4E 4A	4e/ 4a 4cc 4ee	.
=123	=123	=123
!	!LO:N:vis=4	!
8AA/	16a'\LL 16cc 16ffn	.
.	16ee'\	.
8A\L 8c 8e	16dd'\	.
.	16cc'\	.
8A\J 8c 8e	16b'\	.
.	(16a\JJ	.
=124	=124	=124
8D\L	8ffn\L 8aa	.
8A\ 8d	8ee'\) 8gg	.
8A\J 8d	8dd'\J 8ff	.
=125	=125	=125
!	!LO:TUP:a:problem:klamra łukowa	!
8E\L	24dd\LL 24ffn	.
.	24gg\	.
.	24ff\JJ	.
8c\ 8e	8g#X'/L 8ee	.
8B\J 8e	8g#'/J 8dd	.
!!LO:LB:g=original	!	!
=126	=126	=126
*^	*	*
!	!	!LO:TX:a:i:t=Da qui si può passsare al segno        pag. 195.	!
!	!	!LO:TX:a:t=Ztąd można przejść do        str. 195.	!
8C/L	[4.FFn\	(4a/ 4cc	pp
8C/	.	.	.
8C/J	.	16gn/LL 16b-X	.
.	.	16g#X/JJ) 16bn	.
=127	=127	=127	=127
8C/L	4.FF\_	(4a/ 4cc	.
8C/	.	.	.
8C/J	.	16g#X/LL 16b	.
.	.	16gn/JJ) 16b-X	.
=128	=128	=128	=128
8C/L	4.FF\_	(4a/ 4cc	.
8C/	.	.	.
8C/J	.	16g/LL 16b-X	.
.	.	16g#X/JJ) 16bn	.
=129	=129	=129	=129
8C/L	4.FF\]	(4a/ 4cc	.
8C/	.	.	.
8C/J	.	16g#X/LL 16b	.
.	.	16gn/JJ) 16b-X	.
*v	*v	*	*
=130	=130	=130
8FFn'/ 8C	8fn'/ 8a	.
8D'\L 8d	(16b-X\LL	p
.	16dd\	.
8D#X'\J 8c	16ffn\	.
.	16a\JJ)	.
=131	=131	=131
8E'\L 8B	8g#X'/	.
8C'\ 8c	(16a\LL	.
.	16cc\	.
8C#X'\J 8B-X	16ee\	.
.	16gn\JJ)	.
=132	=132	=132
8D'\L 8A	8fn'/	.
8BB-X'\ 8B-X	(16g/LL	.
.	16b-X/	.
8BBn'\J 8G	16dd/	.
.	16f/JJ)	.
!!LO:LB:g=original	!	!
=133	=133	=133
*	*^	*
8C'\L 8G	8e'/	8ryy	.
8AA'\ 8A	(16cc/LL	8fn\L	.
.	16bn/	.	.
8AA#X'\J 8G	16dd/	8e\J	.
.	16cc/JJ)	.	.
=134	=134	=134	=134
8BB'\L 8F#	8b'/L	8d#X\L	.
8BB'\ 8G	8a#X'/	8e\	.
8BB'\J 8F#	8b'/J	8d#\J	.
=135	=135	=135	=135
!	!LO:TUP:a:problem:klamra łukowa	!	!
8BB'^>\L 8G	24cc/LL	8e\L	.
.	24dd/	.	.
.	24cc/JJ	.	.
8BB'\ 8F#	8b'/L	8d#X\	.
8BB'\J 8A#X	8ee'/J	8g\J	.
=136	=136	=136	=136
8BB'\L 8B	8dd#X/L	8f#\L	.
8BB'\ 8G	8a#X/	8e\	.
8BB'\J 8F#	8b/J	8d\J	.
=137	=137	=137	=137
!	!LO:TUP:a:problem:klamra łukowa	!	!
8BB'\L 8G	24cc/LL	8e\L	.
.	24dd/	.	.
.	24cc/J	.	.
8BB'\J 8F#	8b/J	8d#X\J	.
8D#X\ 8d#X	(16bb/LL	8b\ 8ff#	.
.	16aa/JJ)	.	f
*	*v	*v	*
=138	=138	=138
8E\ 8e	8b\ 8ee 8gg	.
*	*tremolo	*
!	!LO:TREM:dotsa	!
(8B\L	16dd#X'\LL 16ff#	pp
.	16dd#'\ 16ff#	.
8G#X\J	16ddn'\ 16ffn	.
.	16dd'\JJ 16ff	.
=139	=139	=139
!	!LO:TREM:dotsa	!
8A\L	16cc#X'\LL 16ee	.
.	16cc#'\ 16ee	.
8F#\	16ccn'\ 16ee-X	.
.	16cc'\ 16ee-	.
8Gn\J	16b'\ 16dd	.
.	16b'\JJ 16dd	.
!!LO:LB:g=original	!	!
=140	=140	=140
!	!LO:TREM:dotsb	!
8E\L	16a#X'/LL 16cc#X	.
.	16a#'/ 16cc#	.
8Fn\	16an'/ 16ccn	.
.	16a'/ 16cc	.
8D#X\J	16f#X'/ 16a 16b	.
.	16f#'/JJ 16a 16b	.
=141	=141	=141
*tremolo	*	*
8E\L)	8g'/L 8b	.
8E\	8a'/ 8cc	.
8E\J	8g'/J 8b-X 8cc#X	.
=142	=142	=142
*^	*^	*
!LO:N:vis=4.	!	!	!	!
(8E/L	4.E\	(8.dd^</L	4g\ 4b	.
8G/	.	.	.	.
.	.	16cc/L	.	.
8c/J)	.	16b-X/	8ryy	.
.	.	16gg/JJ)	.	.
*v	*v	*	*	*
*	*v	*v	*
=143	=143	=143
8Fn'\L	8a'/L 8ffn	.
8G#X'\ 8Bn	8fn'/ 8g#X 8b-X	.
8A'\J 8c	8f'/J 8a 8cc	.
=144	=144	=144
*Xtremolo	*Xtremolo	*
!	!LO:TUP:a:problem:klamra łukowa	!
8C/	24dd\LL	.
.	24ee\	.
.	24dd\JJ	.
8B-X\L 8c 8e	8cc'\L	.
8B-\J 8c 8e	8b-X'\J 8gg	.
=145	=145	=145
8Fn'\	8a'\L 8ffn	.
8c#X'\L	8cc#X'\	.
8d'\J	8dd'\J	.
=146	=146	=146
*^	*^	*
8rc	4.F#X\	(8.ee^</L	4.a\	.
8A/L 8c 8d	.	.	.	.
.	.	16dd/L	.	.
8A/J 8c 8d	.	16cc/	.	.
.	.	16aa/JJ)	.	.
*v	*v	*	*	*
*	*v	*v	*
!!LO:PB:g=original	!	!
=147	=147	=147
8G'\L	8b'\L 8gg	.
8A#X'\ 8c#X	8g'\ 8a#X 8cc#X	.
8B'\J 8d	8g'\J 8b 8dd	.
=148	=148	=148
!	!LO:TUP:a:problem:klamra łukowa	!
8D\	24ee\LL	.
.	24ff#\	.
.	24ee\JJ	.
8c\L 8d 8f#	8dd'\L	.
8c\J 8d 8f#	8cc'\J 8aa	.
=149	=149	=149
8G\	8b'\ 8gg	.
8d'\L	16ff#'\LL	.
.	16gg'\	.
8G'\J 8fn	16aa'\	.
.	16bb'\JJ	.
=150	=150	=150
8C^\L 8E 8c	(8.ccc\L	f
8D^\ 8Fn 8c	.	.
.	16bb\L	.
8E^\J 8G 8c	16bb-X\	.
.	16ggg\JJ)	.
=151	=151	=151
8Fn^\L 8A 8c	8fffn'\L	.
8E^\ 8G 8c	8aa'\	.
8D^\J 8F 8G	8bbn'\J	.
=152	=152	=152
8C^\L 8E 8G	(8.ccc\L	.
8D^\ 8Fn 8c	.	.
.	16bb\L	.
8E^\J 8G 8c	16bb-X\	.
.	16ggg\JJ)	.
=153	=153	=153
8Fn^\L 8A 8c	8fffn'\L	.
8E^\ 8G 8c	8aa'\	.
8D^\J 8F 8G	8bbn'\J	.
!!LO:LB:g=original	!	!
=154	=154	=154
8C\L 8E 8G	(16ccc\LL	fp
.	16ddd\J)	.
8G\ 8c 8e	8ee'\ 8eee	.
8G\J 8c 8e	8ee'\J 8eee	.
=155	=155	=155
8D\L	8dd'\L 8ddd	.
8Fn\ 8A 8d	8cc'\ 8ccc	.
8F\J 8A 8d	8b'\J 8bb	.
=156	=156	=156
8E\L	16a\LL 16aa	.
.	16b\JJ 16bb	.
8A\ 8c 8e	8cc'\L 8ccc	.
8A\J 8c 8e	8cc'\J 8ccc	.
=157	=157	=157
8E\L	(8b\L 8bb	.
8G#X\J 8B 8e	8ee\)	.
8EE/ 8E	8ee'\J 8eee	f
=158	=158	=158
*^	*	*
4E^/	8AA\L 8C	(8.aa\L	.
.	8BB\ 8D	.	.
.	.	16gg#X\L	.
8rc	8C#X\J 8E	16ggn\	.
.	.	16eee\JJ)	.
*v	*v	*	*
=159	=159	=159
8D\L 8Fn	8ddd'\L	.
8Cn\ 8E	8aa'\	.
8BB\J 8D 8E	(16gg#X\L	.
.	16bb\JJ)	.
=160	=160	=160
*^	*	*
4E^/	8AA\L 8C	(8.aa\L	.
.	8BB\ 8D	.	.
.	.	16gg#X\L	.
8rc	8C#X\J 8E	16ggn\	.
.	.	16eee\JJ)	.
*v	*v	*	*
!!LO:LB:g=original	!	!
=161	=161	=161
8D\L 8Fn	8ddd'\L	.
8Cn\ 8E	8aa'\	.
8BB\J 8D 8E	(16gg#X\L	.
.	16bb\JJ)	.
=162	=162	=162
8AA^/L 8A	8cc'\ 8aa	ff
8GG^/ 8G	16cc'\LL 16aa	.
.	16cc'\ 16aa	.
8FFn^/J 8Fn	16cc'\ 16aa	.
.	16cc'\JJ 16aa	.
=163	=163	=163
8EE^\L 8E	8cc'\L 8aa	.
8C^\ 8c	8cc'\ 8aa	.
8BB^\J 8B	8cc'\J 8aa	.
=164	=164	=164
8AA^/L 8A	8cc'\ 8aa	.
8GG^/ 8G	16cc'\LL 16aa	.
.	16cc'\ 16aa	.
8FFn^/J 8Fn	16cc'\ 16aa	.
.	16cc'\JJ 16aa	.
=165	=165	=165
8EE^/L 8E	8cc'\L 8aa	.
8DD^/ 8D	8cc'\ 8aa	.
8CC^/J 8C	8cc'\J 8aa	.
=166	=166	=166
32BBB^/LLL	4cc^\ 4dd#X 4aa 4ccc	sff
32BB/	.	.
32BBB/	.	.
32BB/JJJ	.	.
16BBB/	.	.
16r	.	.
16BB\LL 16D#X 16F#X 16B	16b\LL 16bb	.
16BB\JJ 16D# 16F# 16B	16a\JJ 16aa	.
=167	=167	=167
8BB'\L 8E 8G 8B	8g'\L 8gg	.
8BB'\ 8A	8f#'\ 8b 8ff#	.
8BB'\J 8G	8e'\J 8b 8ee	.
!!LO:LB:g=original	!	!
=168	=168	=168
16BB'\LL 16D#X 16F# 16B	16f#/LL 16b 16dd#X	.
16BB'\JJ 16D# 16F# 16B	16f#/JJ 16b 16ee	.
8BB'\L 8D# 8F# 8B	8f#'\L 8b 8ff#	.
8BB'\J 8D# 8F# 8B	8f#'\J 8b 8ff#	.
=169	=169	=169
8BB^\ 8E 8G 8B	8b'\L 8bb	.
8BB\L 8E 8G 8B	16a\L 16aa	.
.	16g\ 16gg	.
8BB\J 8E 8G 8B	16f#\ 16ff#	.
.	16e\JJ 16ee	.
=170	=170	=170
32BB\LLL	4cc\ 4dd#X 4ccc	sff
32A\	.	.
32BB\	.	.
32A\JJJ	.	.
16BB/	.	.
16r	.	.
16BB\LL 16D#X 16F# 16B	16b\LL 16bb	.
16BB\JJ 16D# 16F# 16B	16a\JJ 16aa	.
=171	=171	=171
8BB'\L 8E 8G 8B	8g'\L 8gg	.
8BB'\ 8A	8f#'\ 8b 8ff#	.
8BB'\J 8G	8e'\J 8b 8ee	.
=172	=172	=172
16BB'\LL 16D#X 16F# 16B	16f#'/LL 16b 16dd#X	.
16BB'\JJ 16D# 16F# 16B	16f#'/JJ 16b 16ee	.
8BB'\L 8D# 8F# 8B	8f#'\L 8b 8ff#	.
8BB'\J 8D# 8F# 8B	8f#'\J 8b 8ff#	.
=173	=173	=173
8BB^\L 8E 8G 8B	16g\LL 16gg	.
.	16b\ 16bb	.
8BB^\ 8E 8G 8B	16a\ 16aa	.
.	16g\ 16gg	.
8BB^\J 8E 8G 8B	16f#\ 16ff#	.
.	16e\JJ 16ee	.
=174	=174	=174
8BB^\ 8D#X 8F# 8B	8b\ 8dd#X 8ff# 8bb	.
8r	8r	.
8B\ 8d#X 8f#	(16ff#\LL 16bb	.
.	16fff#\JJ)	.
!!LO:LB:g=original	!	!
=175	=175	=175
4B^\ 4d#X 4f#	4ff#\ 4fff#	.
8B\ 8d# 8f#	(16ff#\LL	.
.	16bb\JJ)	.
=176	=176	=176
4B^\ 4d#X 4f#	4b\ 4bb	.
8B\ 8d# 8f#	(16bb\LL	.
.	16fff#\JJ)	.
=177	=177	=177
4B^\ 4d#X 4f#	4ff#\ 4fff#	.
8B\ 8d# 8f#	(16ff#\LL	.
.	16bb\JJ)	.
=178	=178	=178
8B^\ 8d#X 8f#	8b\L 8bb	ff
16BB\LL 16B	16b\L 16bb	.
16BB\J 16B	16b\J 16bb	.
8BB\J 8B	8b\J 8bb	.
=179	=179	=179
8r	8b^\L 8bb	.
8a\L	8cc^\ 8ccc	.
8e\J	8cc#X^\J 8ccc#X	.
=180	=180	=180
4.D\ 4.F# 4.A 4.cn	8.ee^\L 8.eee	sff
.	(16ddd\L	.
.	16cccn\	.
.	16aa\JJ	.
=181	=181	=181
8r	16ff#/LL	.
.	16dd/	.
(16c\LL	16cc/	.
16A\	16a/	.
16F#\	16f#/	.
16D\JJ)	16d/JJ)	.
=182	=182	=182
8GG/ 8G	8g/	f
8D\L 8G	8A#X'/L 8c#X	p
8D\J 8G	8B'/J 8d	.
!!LO:LB:g=original	!	!
=183	=183	=183
!	!LO:TUP:b:problem:klamra łukowa	!
8GG/ 8D	24cn/LL 24e	.
.	24f#/	.
.	24e/JJ	.
8D\L 8A	8c'/L 8d	.
8D\J 8A	8c'/J 8d 8a	.
=184	=184	=184
8GG/ 8D	8B'/L 8d 8g	.
8D\L 8G	8A#X'/ 8c#X	.
8D\J 8G	8B'/J 8d	.
=185	=185	=185
!	!LO:TUP:b:problem:klamra łukowa	!
8GG\L 8D	24cn/LL 24e	.
.	24f#/	.
.	24e/JJ	.
8D\ 8A	8c'/L 8d	.
8D\J 8A	8d'/J 8f# 8cc	.
=186	=186	=186
8GG/ 8D	8d'/L 8g 8b	.
8D\L 8G	8c#X'/ 8a#X	.
8D\J 8G	8d'/J 8b	.
=187	=187	=187
8GG/ 8D	4g^\ 4ee	.
8D\L 8A	.	.
8D\J 8A	(16f#/LL 16dd	.
.	16e/JJ) 16cc	.
=188	=188	=188
8GG\L 8D	8e'/L 8cc	.
.	(8qcc/	.
8D\ 8G	16d'/L) 16b	.
.	16a#X'/J	.
8D\J 8G	8d'/J 8b	.
=189	=189	=189
8GG/ 8D	8d/L 8b	.
.	(8qb/	.
8D\L 8F#	16c'/L) 16a	.
.	16B'/ 16g#X	.
8D\J 8F#	16c'/ 16a	.
.	16d'/JJ 16b	.
!!LO:PB:g=original	!	!
=190	=190	=190
8GG/ 8D	8B'/ 8g	.
8D\L 8G	8c#X'/L 8a#X	.
8D\J 8G	8d'/J 8b	.
=191	=191	=191
*	*^	*
!	!	!LO:TUP:b:problem:klamra łukowa	!
8GG/ 8D	4cc/	24e^\LL	.
.	.	24f#\	.
.	.	24e\J	.
8D\L 8A	.	8d'\	.
8D\J 8A	8f#/	8c'\J 8d	.
*	*v	*v	*
=192	=192	=192
8GG\L 8D	8B/ 8d 8g	.
8D\ 8G	8c'/L 8g 8a#X	.
8D\J 8G	8d'/J 8g 8b	.
=193	=193	=193
*	*^	*
!	!	!LO:TUP:b:problem:klamra łukowa	!
8GG\L 8D	4ee/	24g^\LL	.
.	.	24a\	.
.	.	24g\J	.
8D\ 8A	.	8f#'\	.
8D\J 8A	8dd/	8d'\J 8f# 8cc	.
*	*v	*v	*
=194	=194	=194
8GG\L 8D	8d/ 8g 8b 8dd	.
8D\ 8G	8g'/L 8a#X 8cc#X	.
8D\J 8G	8g'/J 8b 8dd	.
=195	=195	=195
*	*^	*
!	!	!LO:TUP:b:problem:klamra łukowa	!
8GG\L 8D	4ccc/	24ee^\LL	.
.	.	24ff#\	.
.	.	24ee\J	.
8D\ 8A	.	8dd'\	.
8D\J 8A	8ff#/	8ccn'\J	.
=196	=196	=196	=196
!	!	!LO:TUP:b:problem:klamra łukowa	!
8GG\L 8D	(8.aa/L	24b^\LL	.
.	.	24cc\	.
.	.	24b\J	.
8D\ 8G	.	8dd'\	.
.	16gg/L	.	.
8D\J 8G	16ff#/	8b'\J	.
.	16ee/JJ)	.	.
!!LO:LB:g=original	!	!	!
=197	=197	=197	=197
!	!LO:TX:a:i:t=Da qui si può passsare al	!	!
!	!LO:TX:a:t=Ztąd można przejść do	!	!
!	!	!LO:TUP:b:problem:klamra łukowa	!
8GG\L 8D	(8.ff#/L	24a^\LL	.
.	.	24b\	.
.	.	24a\JJ	.
8D\ 8A	.	4f#\	.
.	16ee/L	.	.
8D\J 8A	16dd/	.	.
.	16cc/JJ)	.	.
=198	=198	=198	=198
8GG\L 8D	8b/	8g\	.
8G\	8f#'/L 8dd#X	4ryy	.
8G\J	8g'/J 8ee	.	.
=199	=199	=199	=199
!	!	!LO:TUP:b:problem:klamra łukowa	!
8GG\L	4ffn/	24a^\LL	.
.	.	24b\	.
.	.	24a\J	.
8G\	.	8g\	.
8G\J	8b/	8fn\J	.
=200	=200	=200	=200
8C\L	8cc/	8e\L	.
8G\	8rcc	8d#X\	.
8G\J	8ee/	8e\J	.
=201	=201	=201	=201
!	!	!LO:TUP:b:problem:klamra łukowa	!
8EE\L	8dd'/L	24fn^\LL	.
.	.	24g\	.
.	.	24f\J	.
8E\	8cc'/	8e\	.
8E\J	8b'/J	8d\J 8g#X	.
*	*v	*v	*
=202	=202	=202
8AA\L	8c'/L 8a	<
8A\	8d'/ 8b	.
8A\J	8e'/J 8cc	[[
=203	=203	=203
*	*^	*
8DD\L	(16ee/LL	8g'\	.
.	16aa/)	.	.
8D\	16gg'/	16ra	.
.	16ff#X'/	16dd\LL	.
8D\J	16ee'/	16cc\JJ	.
.	16ff#'/JJ	16ra	.
=204	=204	=204	=204
8DD\L	4gg/	8cc\L	.
.	.	(8qcc/	.
8D\	.	16b'\L)	.
.	.	16a#X'\J	.
8D\J	8dd/	8b\J	.
!!LO:LB:g=original	!	!	!
=205	=205	=205	=205
8DD^\L	4dd/	8b\L	.
.	.	(8qb/	.
8D\ 8c	.	16a'\L)	.
.	.	16g#X'\J	.
8D\J 8c	8dd/	8a\J	.
*	*v	*v	*
=206	=206	=206
8GG\L	8g'\L 8ee	<
8G\	8f#'\ 8dd#X	.
8G\J	8g'\J 8ee	[[
=207	=207	=207
*	*^	*
!	!	!LO:TUP:b:problem:klamra łukowa	!
8GG\L	4ffn/	24a^\LL	.
.	.	24b\	.
.	.	24a\J	.
8G\	.	8g\	.
8G\J	8b/	8fn\J	.
=208	=208	=208	=208
8C\L	8cc/	8e\	.
8G\	8rcc	8d#X'\L	.
8G\J	8ee'/	8e'\J	.
=209	=209	=209	=209
!	!	!LO:TUP:b:problem:klamra łukowa	!
8EE\L	8dd'/L	24fn\LL	.
.	.	24g\	.
.	.	24f\J	.
8E\	8cc'/	8e\	.
8E\J	8b'/J	8d\J 8g#X	.
*	*v	*v	*
=210	=210	=210
8AA\L	8c'/L 8a	<
8A\	8d'/ 8b	.
8A\J	8e'/J 8cc	[[
=211	=211	=211
*	*^	*
8DD\L	(16ee/LL	8g\	.
.	16aa/)	.	.
8D\	16gg'/	16ra	.
.	16ff#X'/	16dd\LL	.
8D\J	16ee'/	16cc\JJ	.
.	16ff#'/JJ	16ra	.
*	*v	*v	*
!!LO:LB:g=original	!	!
=212	=212	=212
8GG\L	8cc\L 8gg	.
.	(8qcc/	.
8G\	16b'\L)	.
.	16a#X'\J	.
8G\J	8b\J 8dd	.
=213	=213	=213
*	*^	*
8DD#X\L	4gg/	8b^\L	.
.	.	(8qb/	.
8D#X\	.	16a'\L)	.
.	.	16g#X'\J	.
8D#\J	8ff#/	8a\J	.
=214	=214	=214	=214
8EE\L	8ff#/L	8a^<\L	.
8E\	8b/	16gn'\L	.
.	.	16f#'\J	.
!	!	!LO:TX:t=P:problem: strzałka nad kreską taktową	!
8E\J	8ee/J	8g\J	.
*	*v	*v	*
=215	=215	=215
8AA#X\L	8g^\L 8ee	.
8c#X\ 8f#	(16dd#X\L	.
.	16ee\	.
8c#\J 8e	16ff#\	.
.	16ee\JJ)	.
=216	=216	=216
8BB'\L 8F#	8d#X'/L 8b	.
8BB'\ 8G	8e'/ 8a#X	.
8BB'\J 8F#	8d#'/J 8b	.
=217	=217	=217
*	*^	*
!	!LO:TUP:a:problem:klamra łukowa	!	!
8BB'\L 8G	24cc/LL	8e\L	.
.	24dd/	.	.
.	24cc/JJ	.	.
8BB'\ 8F#	8b'/L	8d#X\	.
8BB'\J 8A#X	8ee'/J	8g^\J	.
=218	=218	=218	=218
8BB'\L 8B	8dd#X'/L	8f#^\L	.
8BB'\ 8G	8a#X'/	8e\	.
8BB'\J 8F#	8b'/J	8d#X\J	.
=219	=219	=219	=219
!	!LO:TUP:a:problem:klamra łukowa	!	!
8BB'\L 8G	24cc/LL	8e\L	.
.	24dd/	.	.
.	24cc/JJ	.	.
8BB'\ 8F#	8b'/L	8d#X\	.
8BB'\J 8E	8gg'/J	8a#X^\J	.
*	*v	*v	*
!!LO:LB:g=original	!	!
=220	=220	=220
8BB^\ 8D#X	8b\ 8ff#	.
(8G#X\L	16ddn'\LL 16ffn	pp
.	16dd'\ 16ff	.
8A\J	16cc#X'\ 16ee	.
.	16cc#'\JJ 16ee	.
=221	=221	=221
8F#\L	16ccn'\LL 16ee-X	.
.	16cc'\ 16ee-	.
8Gn\	16b'\ 16dd	.
.	16b'\ 16dd	.
8E\J	16b-X'\ 16dd-X	.
.	16b-'\JJ 16dd-	.
=222	=222	=222
8Fn\L	16a'\LL 16cc	.
.	16a'\ 16cc	.
8D#X\	16a'\ 16bn	.
.	16a'\ 16b	.
8E\J	16g'\ 16b	.
.	16g'\JJ 16b	.
=223	=223	=223
!	!LO:TUP:b:problem:klamra łukowa	!
8AA\L)	24f#/LL 24a	.
.	24b/	.
.	24a/JJ	.
8BB'\	8e'/L 8g	.
8BB'\J 8A	8d#X'/J 8f#	.
=224	=224	=224
*^	*^	*
!	!	!LO:N:vis=4.	!	!
8G/L	8E\	8e/L	4.e\	.
8B/	8rC	8f#/ 8a#X	.	.
8B/J	8rC	8g/J 8b	.	.
=225	=225	=225	=225	=225
!	!	!LO:TUP:a:problem:klamra łukowa	!	!
4.d#X^/	8rC	(24cc/LL	4a\	.
.	.	24dd/	.	.
.	.	24cc/J	.	.
.	8E\L 8B	8b/J)	.	.
.	8E\J 8B	8ff#/	8a\	.
*	*	*v	*v	*
!!LO:LB:g=original	!	!	!
=226	=226	=226	=226
4.dn^/	8rC	8g#X'/L 8ee	.
.	8E\L	8f##X'/ 8a#X	.
.	8E\J	8g#'/J 8b	.
=227	=227	=227	=227
*	*	*^	*
!	!	!LO:TUP:a:problem:klamra łukowa	!	!
8c/L	8rC	24cc/LL	8a\L	.
.	.	24dd/	.	.
.	.	24cc/JJ	.	.
8B/	8E\L 8G	8b'/L	8b\	.
8d#X/J	8E\J 8A	8ff#'/J	8a\J	.
*v	*v	*	*	*
*	*v	*v	*
=228	=228	=228
8E\L 8e	8g'\L 8ee	<
8B'\	8a'\ 8ff#	.
8e'\J	8b'\J 8gg	[[
=229	=229	=229
16AA'\LL	(8dd\L 8bb	< sf
16G#X'\	.	.
16A'\	8cc\) 8aa	.
16B'\	.	.
16c'\	8a'\J 8ff#	.
16A'\JJ	.	[[
=230	=230	=230
8BB^\L	8cc'\L 8aa	.
8e\	16b'\L 16ggn	.
.	16a'\J 16ff#	.
8B\J	8g'\J 8ee	.
=231	=231	=231
8BB\L	16f#'\LL 16dd#X	.
.	16g'\J 16ee	.
8B\	8a'\J 8ff#	.
8B\J	8d#X'/ 8a 8b	.
=232	=232	=232
8E\	8g\L 8ee	.
16e\LL	8f#\ 8a#X	.
16e\	.	.
16e\	8g\J 8b	.
16e\JJ	.	.
!!LO:PB:g=original	!	!
=233	=233	=233
*	*^	*
!	!LO:TUP:a:problem:klamra łukowa	!	!
8E\	24cc/LL	8a\L	.
.	24dd/	.	.
.	24cc/J	.	.
N(>16d#X\LL	8b'/	8b\	.
16f#\JJ)	.	.	.
8r	8ff#'/J	(16a\L	.
.	.	16cc\JJN)<	.
*	*v	*v	*
=234	=234	=234
8E\ 8G 8e	8ee'\	.
8B\L	8d#X'/L 8f#	.
8B\J	8e'/J 8g	.
=235	=235	=235
*	*^	*
!	!LO:TUP:a:problem:klamra łukowa	!	!
8GG/	24a/LL	8fn\	.
.	24b/	.	.
.	24a/JJ	.	.
16G\LL	(16g/LL	8g\L	.
16G\	16b/	.	.
16G\	16dd/	8ffn\J	.
16G\JJ	16g/JJ)	.	.
*	*v	*v	*
=236	=236	=236
8C\L	8cc\ 8ee	<
8G\	(16dd#X\LL	.
.	16ee\	.
8A\J	16ff#X\	.
.	16ee\JJ) 16gg	[[
=237	=237	=237
(16A^\LL	(8dd\L 8bb	f
16G#X\	.	.
16A\	8cc\) 8aa	.
16B\	.	.
16c\	8a'\J 8ff#	.
16A\JJ)	.	.
=238	=238	=238
8BB^\L	8cc'\L 8aa	.
16B\L	16b'\L 16gg	.
16B\J	16a'\J 16ff#	.
8B\J	8g'\J 8ee	.
=239	=239	=239
16BB\LL 16B	16b'\LL 16dd#X	.
16BB\J 16B	16cc#X'\J 16ee	.
8BB\J 8B	8dd#'\J 8ff#	.
8BBB/ 8BB	8b\ 8dd# 8ff# 8bb	ff
!!LO:LB:g=original	!	!
=240	=240	=240
8EE^\L 8E	8b\L 8ee 8gg	ff
8BB\ 8D#X 8F# 8B	(16b\L 16dd#X 16ff#	.
.	16bb\J)	.
8E^\J 8G 8B	8b\ 8ee 8gg	.
=241	=241	=241
8BB\L 8D#X 8F# 8B	(16b\ 16dd#X 16ff#	.
.	16bb\JJ)	.
8E^\ 8G 8B	8b\L 8ee 8gg	.
8BB\J 8D# 8F# 8B	(16b\L 16dd# 16ff#	.
.	16bb\JJ)	.
=242	=242	=242
8E^\ 8G 8B	8b\ 8ee 8gg	.
8GG\L 8BB 8Dn 8G	(16g\LL 16b 16ddn	.
.	16gg\J)	.
8C^\J 8E 8G	8g\ 8cc 8ee	.
=243	=243	=243
8GG\L 8BB 8D 8G	(16g\ 16b 16dd	.
.	16gg\J)	.
8C^\ 8E 8G	8g\J 8cc 8ee	.
8GG\J 8BB 8D 8G	(16g\LL 16b 16dd	.
.	16gg\JJ)	.
=244	=244	=244
8C\L 8E 8G	8g^\L 8cc 8ee	.
8BB\ 8G	8g^\ 8dd	.
8BB-X\J 8G	8g^\J 8cc 8ee	.
=245	=245	=245
8AA^/L 8A	8fn\L 8cc 8ffn	.
8GG^/ 8G	8cc\ 8ee 8gg	.
8FFn^/J 8Fn	8cc\J 8dd 8aa	.
=246	=246	=246
8GG/ 8G	8cc^\ 8ee 8gg	.
8r	8r	.
8r	8r	.
=247	=247	=247
8GG/ 8BB 8D 8G	8g^\ 8b 8dd 8gg	.
8r;	8r;	.
8r	8r	.
!!LO:LB:g=original	!	!
=248||	=248||	=248||
!	!LO:TX:b:i:t=sempre molto stacc.	!
!	!LO:TX:a:B:t=Presto	!
8g'\L	8b'/L	.
8f#'\	8a'/ 8cc	.
8fn'\J	8g'/J 8b 8dd	.
=249	=249	=249
8e'\L	8g'\L 8cc 8ee	.
8d'\	8g'\ 8dd 8ffn	.
8c'\J	8a'\J 8ee-X 8ff#X	.
=250	=250	=250
8B\L	8dd\L 8gg	<
8A\	8dd\ 8ff# 8aa	.
8G\J	8dd\J 8gg 8bb	.
=251	=251	=251
8F#\L	8dd\L 8aa 8ccc	.
8Fn\	8gg\ 8bb 8ddd	.
8E\J	8gg\J 8ccc 8eee	.
=252	=252	=252
*	*^	*
8D\L	8ryy	8aa\L 8ddd 8fffn	fz
8E\	(16eee/LL	8gg\ 8ccc	>
.	16fff/J)	.	.
8Fn\J	8ddd/J	8ffn\J 8aa	.
*	*v	*v	*
=253	=253	=253
8F#X\L	8dd\L 8aa 8ccc	.
8G\	8dd\ 8gg 8bb	.
8A\J	8dd\J 8ff#X 8aa	]]
=254	=254	=254
*	*^	*
8B\L	8ryy	8dd\L 8gg	.
8c\	(16ffn/LL	8a\	.
.	16gg/	.	.
8c#X\J	16ee/	8g\J	.
.	16ff/JJ)	.	.
=255	=255	=255	=255
8d\L	8dd/L	8fn\L	.
8e\	(16ccn/L	8g\	.
.	16ee/	.	.
8f#X\J	16dd/	8a\J	.
.	16cc/JJ)	.	.
*	*v	*v	*
!!LO:LB:g=original	!	!
=256	=256	=256
!	!LO:TX:a:i:t=Da qui si può passsare al [coda] pag. 199.	!
!	!LO:TX:a:t=Ztąd można przejść do [coda] str. 199.	!
8g\L	8b/L	.
8f#\	8a/ 8cc	.
!	!LO:TX:b:t=cre_scen_do:dur=7e:ext=ud:problem:text with extention lines 	!
8e\J	8g/J 8a 8cc#X	<
=257	=257	=257
8d\L	8f#\L 8a 8dd	.
8c#X\	8a\ 8ee	.
8cn\J	8a\J 8dd 8ff#	.
=258	=258	=258
8B\L	8dd\L 8gg	.
8A\	8dd\ 8ff# 8aa	.
8G#X\J	8ee\J 8bb	[[
=259	=259	=259
8Gn\L	8ee\L 8aa 8ccc#X	.
8F#\	8ff#\ 8aa 8ddd	.
8E\J	8gg\J 8ccc# 8eee	.
=260	=260	=260
8D\L	8aa\L 8ddd 8fff#	.
8E\	(16gg\L 16ccc#X 16eee	.
.	16fff#\J)	.
!	!LO:TX:b:t=di_mi_nu_en_do:dur=7e4s:ext=ud:problem:text with extention lines 	!
8E#X\J	8gg#X\J 8ddd	>
=261	=261	=261
8F#\L	8aa\L 8ccc#X	.
8G\	8dd\ 8ggn 8bb	.
8A\J	8dd\J 8ff# 8aa	.
=262	=262	=262
8B\L	(16ee\LL 16gg#X	.
.	16bb\JJ)	.
8c#X\	8ee\L 8aa	.
8d\J	8dd\J 8ff#	.
=263	=263	=263
*	*^	*
8d#X\L	4bb/	16ff#\LL	.
.	.	16aa\J	.
8e\	.	8ggn\	]
8f#\J	(32bb/LLL	8dd#X\J	.
.	32aa/	.	.
.	32gg/	.	.
.	32ff#/JJJ	.	.
*	*v	*v	*
!!LO:LB:g=original	!	!
=264	=264	=264
8g\L	8ee\L)	.
8f#\	8b\ 8dd#X	<
8e\J	8b\J 8ee	.
=265	=265	=265
8dn\L	8b\L 8ff#	.
8c#X\	8ee\ 8aa#X	.
8B\J	8dd\J 8bb	.
=266	=266	=266
*	*^	*
8An\L	8ryy	8dd#X\L 8ccc#X	.
8G#X\	(16ccc#/LL	8ee#X\	.
.	16ddd/	.	.
8F#\J	16ccc#/	8ff#\J	.
.	16ddd/JJ)	.	.
=267	=267	=267	=267
8E#X\L	8ccc#X/L	8gg#X\L	.
8En\	16ccc#/L	8ggn\	.
.	16ccc#/J	.	.
8D#X\J	8ff#/J	8ff#\J	[[
=268	=268	=268	=268
8Dn\L	8fff#/L	8ff#\L	sf
8E\	(16eee/L	8gg\	>
.	16fff#/	.	.
8E#X\J	16ddd/	8gg#X\J	.
.	16eee/JJ)	.	.
*	*v	*v	*
=269	=269	=269
8F#\L	8aa\L 8ccc#X	.
8G#X\	8dd\ 8ee#X 8bb	.
8A\J	8cc\J 8ff# 8aa	.
=270	=270	=270
*	*^	*
8A#X\L	8ryy	8een\L 8ggn	.
8B\	(16ff#/LL	8dd\	.
.	16gg/	.	.
8c#X\J	16ee/	8a#X\J	.
.	16ff#/JJ)	.	]]
!!LO:LB:g=original	!	!	!
=271	=271	=271	=271
8d\L	8ryy	8b\L 8dd	.
8E\	(16cc#X/LL	8g\	.
.	16ee/	.	.
8F#\J	16dd/	8an\J	.
.	16ccn/JJ)	.	.
*	*v	*v	*
=272	=272	=272
8G\L	8g/L 8b	f
(16F#\L	8a/ 8cc	<
16G\	.	.
!	!LO:TX:b:i:t=molto	!
16Fn\	8g/J 8b 8dd	.
16G\JJ)	.	.
=273	=273	=273
8E\L	8g\L 8cc 8ee	.
8D\	8g\ 8dd 8ffn	.
8C\J	8g\J 8ee-X 8ff#X	[[
=274	=274	=274
8BB/	8g\L 8dd 8gg	.
(16A\LL	8dd\ 8ff# 8aa	.
16B\	.	.
16G\	8dd\J 8gg 8bb	.
16A\JJ)	.	.
=275	=275	=275
8F#\L	8dd\L 8aa 8ccc	.
8Fn\	8gg\ 8bb 8ddd	.
8E\J	8gg\J 8ccc#X 8eee	.
=276	=276	=276
*	*^	*
8D\L	8ryy	8ffn\L 8ddd 8fffn	.
8E\	(16eee/LL	8gg\	.
.	16fff/	.	.
8F#\J	16ddd/	[8aa\J	.
.	16eee/JJ)	.	.
=277	=277	=277	=277
8F#X\L	(16ccc/LL	8aa\L]	.
.	16bb/	.	.
8F#\ 8d	16ddd/	8aa\J	.
.	16ccc/	.	.
8F#\J 8d	16bb/	8ra	.
.	16aa/JJ	.	.
*	*v	*v	*
!!LO:PB:g=original	!	!
=278	=278	=278
8G\L 8B 8d	16gg\LL	.
.	16aa\	.
8G\ 8B 8d	16gg\	.
.	16ffn\	.
8GG\J	16ee\	.
.	16dd\JJ)	.
=279	=279	=279
8C\ 8E	8cc\	f
8CC/	8r	.
(<8c^\ [>8d [8fn	[8dd\ [8ffn (8aa	.
=280	=280	=280
8B\L) 8d] 8fnX]	8dd\L] 8ffnX] 8gg)	.
8G\J	8b\J 8dd	.
(<8c^\ [<8d [8f#y	8dd\ 8ff#y 8aa	.
=281	=281	=281
8B\L) 8d] 8f#]	(16gg\LL	.
.	32ffn\L	.
.	32ee\JJ	.
8G\J	8b\J) 8dd	.
(<8c^\ [<8d [8f#	8dd\ 8ff 8aa	.
=282	=282	=282
8B\) 8d] 8f#]	(16gg\LL	.
.	16dd\)	.
16G'\LL 16g	16b'\ 16dd	.
16G'\ 16g	16cc'\ 16ee	.
16G'\ 16g	16dd'\ 16ffn	.
16G'\JJ 16g	16b'\JJ 16gg	.
=283	=283	=283
!LO:TUP:a	!LO:TUP:a	!
24C\LL 24E 24G 24c	24ee\LL	ff
24C\ 24E 24G 24c	24gg\	.
24C\JJ 24E 24G 24c	24ccc\JJ	.
8C\ 8E 8G 8c	8ee\ 8eee	.
(<8d^\ [8e [8g	([8ee\ [8gg 8bb-X	.
=284	=284	=284
8c#X\L) 8e] 8g]	8ee\L]) 8gg] 8aa	.
8A\J	8cc#X\J 8ee	.
(<8d^\ [8e\ [8g\	8ee\ 8gg 8bb-X	.
!!LO:LB:g=original	!	!
=285	=285	=285
8c#X\L) 8e] 8g]	(16aa\LL	.
.	32gg\L	.
.	32ff#\JJ	.
8A\J	8cc#X\J) 8ee	.
(<8d^>\ [8e [8g	(8ee\ 8gg 8bb-X	.
=286	=286	=286
8c#X\) 8e] 8g]	16aa\LL)	.
.	16ee'\	.
16A'\LL 16a	16cc#X'\ 16aa	.
16A'\ 16a	16ee'\ 16gg	.
16A'\ 16a	16dd'\ 16ffn	.
16A'\JJ 16a	16cc#'\JJ 16ee	.
=287	=287	=287
!LO:TUP:a	!LO:TUP:a	!
24D\LL 24F# 24A 24d	24ffn\LL	ff
24D\ 24F# 24A 24d	24aa\	.
24D\JJ 24F# 24A 24d	24ddd\JJ	.
8D\ 8F# 8A 8d	8ffn\ 8fffn	.
8BB\ 8D 8G	(16aa\LL	.
.	16gg\JJ)	.
=288	=288	=288
*	*^	*
8C\L 8E 8G	8gg/L	8ra	.
8D\	(16ffn/L	8b\L	.
.	16gg/J)	.	.
8E\J	8ee/J	8cc\J	.
=289	=289	=289	=289
8Fn\L	8dd/L	8cc\L	.
8F#X\	8dd/	8cc\	.
8G\J	8dd/J	8cc\J	.
=290	=290	=290	=290
8A-X\L	8dd/L	8b\L	.
8G\	8ee/	8b\	.
8Fn\J	(16ffn/L	(16b\L	.
.	16dd/JJ)	16dd\JJ)	.
=291	=291	=291	=291
8E\L	8gg/L	4cc\	<
8D\	8ff#X/ 8aa	.	.
8G\J	8ffn/J 8bb	8dd\	[[
*	*v	*v	*
!!LO:LB:g=original	!	!
=292	=292	=292
8C\ 8c	8cc\ 8ee 8ccc	sf
16C'\LL 16c	16cc'\LL 16ee	.
16C'\J 16c	16dd'\J 16ffn	.
8C'\J 8c	8ee'\J 8gg	.
=293	=293	=293
8FFn/ 8Fn	(16a\LL 16aa	.
.	16ffn\JJ)	.
8F'\L 8A	8a'\L 8dd	.
8E'\J 8A	8a'\J 8cc#X 8ee	.
=294	=294	=294
*	*^	*
8D\L 8A	(32gg/LLL	8a\L	.
.	32ffn/	.	.
.	32ee/	.	.
.	32ff/JJJ)	.	.
8Fn\	8a'/L	8a\	.
8E\J 8d	8b'/J	8g#X\J	.
*	*v	*v	*
=295	=295	=295
8A\ 8c	(16a\LL 16cc	>
.	16ee\)	.
8r	16dd'\	.
.	16cc'\	.
8r	16b'\	.
.	16a'\JJ	]]
=296	=296	=296
8g'\L	8b'\L	p
8f#X'\	8a'\ 8cc	.
8fn'\J	8g'\J 8b 8dd	.
=297	=297	=297
8e'\L	8g'\L 8cc 8ee	.
8d'\	8g'\ 8dd 8ffn	.
8c'\J	8g'\J 8ee-X 8ff#X	.
=298	=298	=298
8B\L	8dd\L 8gg	<
8A\	8dd\ 8ff# 8aa	.
8G\J	8dd\J 8gg 8bb	.
!!LO:LB:g=original	!	!
=299	=299	=299
8F#\L 8d	8dd\L 8aa 8ccc	.
8Fn\ 8B	8gg\ 8bb 8ddd	.
8E\J 8c#X	8gg\J 8ccc#X 8eee	[[
=300	=300	=300
*	*^	*
8D\L	8ryy	8ffn\L 8ddd 8fffn	sf
8E'\ 8A 8c#X	(16eee/LL	8gg\	>
.	16fff/J)	.	.
8Fn'\J 8A 8d	8ddd/J	8ff\J	.
*	*v	*v	*
=301	=301	=301
8F#X'\L 8A 8d	8dd'\L 8cccn	.
8G'\ 8B 8d	8dd'\ 8bb	.
8A'\J 8d 8f#	8dd'\J 8ff#X 8aa	.
=302	=302	=302
*	*^	*
8B\L 8d 8g	8ryy	8dd\L 8gg	.
8c\	(16ffn/LL	8a\	.
.	16gg/	.	.
8c#X\J	16ee/	8g\J	.
.	16ff/JJ)	.	.
=303	=303	=303	=303
8d\L	8dd/L	8fn\L	.
8e\	(16ccn/L	8g\	.
.	16ee/	.	]
8f#X\J	16dd/	8a\J	.
.	16cc/JJ)	.	.
*	*v	*v	*
=304	=304	=304
8g\L	8b/L	<
8f#\	8a/ 8cc	.
8e\J	8g/J 8a 8cc#X	[[
=305	=305	=305
!	!	!LO:HP:b
8d\L	8f#\L 8a 8dd	<
8c#X\	8a\ 8ee	.
8cn\J	8a\J 8dd 8ff#	.
!!LO:LB:g=original	!	!
=306	=306	=306
8B\L 8d	8dd\L 8gg	.
8A\ 8d	8dd\ 8aa	.
8G#X\J 8e	8dd\J 8bb	.
=307	=307	=307
8Gn\L 8A 8e	8ee\L 8ccc#X	.
8F#\ 8A 8d	8ff#\ 8ddd	.
8E\J 8A 8c#X	8gg\J 8eee	[[
=308	=308	=308
8D\L 8A 8d	8ff#\L 8aa 8fff#	sf
8E\ 8A 8c#X	(16gg\L 16eee	>
.	16fff#\J)	.
8E#X\J 8B	8gg#X'\J 8ddd	.
=309	=309	=309
8F#\L 8A	8aa'\L 8ccc#X	.
8G\ 8d	8ggn'\ 8bb	.
8A\J 8d	8ff#'\J 8aa	.
=310	=310	=310
8B\L 8d	(16ee\LL 16gg#X	.
.	16bb\J)	.
8c#X\	8ee'\ 8aa	.
8d\J	8dd'\J 8ff#	]]
=311	=311	=311
*	*^	*
8d#X\L	4bb/	16ff#\LL	.
.	.	16aa\J	.
8e\	.	8gg\	.
8f#\J	(32bb/LLL	8dd#X\J	.
.	32aa/	.	.
.	32gg/	.	.
.	32ff#/JJJ	.	.
*	*v	*v	*
=312	=312	=312
8g\L	8ee\L)	.
8f#\ 8a	8b\ 8dd#X	.
8e\J 8g	8b\J 8ee	.
!!LO:LB:g=original	!	!
=313	=313	=313
8dn\L 8f#	8b\L 8ff#	<
8c#X\ 8f#	8ee\ 8aa#X	.
8B\J 8f#	8dd\J 8bb	.
=314	=314	=314
*	*^	*
8An\L 8f#	8ryy	8cc#X\L 8ccc#X	.
8G#X\ 8B	(16ccc#/LL	8ee#X\	.
.	16ddd/	.	.
8F#\J 8A	16ccc#/	8ff#\J	.
.	16ddd/JJ)	.	.
=315	=315	=315	=315
8E#X\L 8G#X	8ccc/L	8gg#X\L	.
8En\ 8A#X	16ccc/L	8ggn\	.
.	16ccc/J	.	.
8D#X\J 8B	8ff#/J	8ff#\J	[[
=316	=316	=316	=316
8Dn\L 8d	8fff#/L	8ff#\L	>
8E\ 8c#X	(16eee/L	8gg\	.
.	16fff#/	.	.
8E#X\J 8B	16ddd/	8gg#X\J	.
.	16eeen/JJ)	.	.
*	*v	*v	*
=317	=317	=317
8F#\L 8An	8aa\L 8ccc#X	.
8G#X\ 8B	8dd\ 8ee#X 8bb	.
8A\J 8c#X	8cc\J 8ff# 8aa	]]
=318	=318	=318
*	*^	*
8A#X\L 8c#X	8ryy	8een\L 8ggn	.
8B\ 8d	(16ff#/LL	8dd\	.
.	16gg/	.	.
8c#\J 8e	16ee/	8a#X\J	.
.	16ff#/JJ)	.	.
=319	=319	=319	=319
8d\L 8f#	8ryy	8b\L 8dd	.
8E\	(16cc#X/LL	8g\	.
.	16ee/	.	.
8F#\J	16dd/	8an\J	.
.	16ccn/JJ)	.	.
*	*v	*v	*
!!LO:PB:g=original	!	!
=320	=320	=320
!	!LO:TX:a:t=[coda]	!
8G\L	8g/L 8b	f
!	!LO:TX:b:i:t=molto	!
(16F#\L	8a/ 8cc	.
16G\	.	.
16Fn\	8g/J 8b 8dd	.
16G\JJ)	.	.
=321	=321	=321
8E\L	8g\L 8cc 8ee	<
8D\	8g\ 8dd 8ffn	.
8C\J	8g\J 8ee-X 8ff#X	.
=322	=322	=322
8BB/	8g\L 8dd 8gg	.
(16A\LL	8dd\ 8ff# 8aa	.
16B\	.	.
16G\	8dd\J 8gg 8bb	.
16A\JJ)	.	.
=323	=323	=323
8F#\L	8dd\L 8aa 8ccc	.
8Fn\	8gg\ 8bb 8ddd	.
8E\J	8gg\J 8ccc#X 8eee	.
=324	=324	=324
*	*^	*
8D\L	8ryy	8ffn\L 8ddd 8fffn	.
8E\	(16eee/LL	8gg\	.
.	16fff/	.	.
8Fn\J	16ddd/	[8aa\J	.
.	16eee/JJ)	.	.
=325	=325	=325	=325
8F#X\L	(16ccc/LL	8aa\L]	.
.	16bb/	.	.
8F#\ 8d	16ddd/	8aa\J	.
.	16ccc/	.	.
8F#\J 8d	16bb/	8ra	.
.	16aa/JJ	.	.
*	*v	*v	*
=326	=326	=326
8G\L 8B 8d	16gg\LL	.
.	16aa\	.
8G\J 8B 8d	16gg\	.
.	16ffn\	.
8GG/	16ee\	.
.	16dd\JJ)	.
!!LO:LB:g=original	!	!
=327	=327	=327
8C\ 8E 8G 8c	8cc\	.
8r;	8r;	.
8r	8r	.
=328	=328	=328
8EE'/	8r	p
8BB/L 8E	8f#'/L 8a#X	.
8BB/J 8E	8g'/J 8b	.
=329	=329	=329
*	*^	*
8BBB'/	(24cc/LL	4an\	.
.	24dd/	.	.
.	24cc/JJ	.	.
8BB/L	8b'/L)	.	.
8BB/J	8ff#'/J	8a\	.
=330	=330	=330	=330
8EE'/	8ee'/	8g\	.
8BB/L 8E	8f#'/L 8a#X	8ryy	.
8BB/J 8E	8g'/J 8b	8ryy	.
=331	=331	=331	=331
8BBB'/	(24cc/LL	4an\	.
.	24dd/	.	.
.	24cc/JJ	.	.
8BB/L	8b'/L)	.	.
8BB/J	8ff#'/J	8a\	.
=332	=332	=332	=332
8EE'/	8ee'/	8g\	.
8E\L	8a'\L 8ff#	8ryy	.
8E\J	8b'\J 8gg	8ryy	.
*	*v	*v	*
=333	=333	=333
8AA'\L	(8dd\L 8bb	.
8E\	8cc\) 8aa	.
8E\J	8a'\J 8ff#	.
=334	=334	=334
8BB'^\L	8cc'\L 8aa	.
8E\ 8B	16b'\L 16gg	.
.	16a'\J 16ff#	.
8E\J 8B	8g'\J 8ee	.
!!LO:LB:g=original	!	!
=335	=335	=335
16BB\LL 16B	16f#'\LL 16dd#X	.
16BB\J 16B	16g'\J 16ee	.
8BB\J 8B	8a'\J 8ff#	.
8BB^\ 8B	8d#X/ 8a 8b	.
=336	=336	=336
8E^'\L	8g\ 8b 8gg	.
8B'\	8f#'/L 8a#X	.
8B'\J	8g'/J 8b	.
=337	=337	=337
*	*^	*
8BB'\L	(24cc/LL	4an\	.
.	24dd/	.	.
.	24cc/JJ	.	.
8B'\	8b'/L)	.	.
8B'\J	8ff#'/J	8a\	.
=338	=338	=338	=338
8E'\L	8ee/	8g\	.
8B'\	8f#'/L 8a#X	8ryy	.
8B'\J	8g'/J 8b	8ryy	.
=339	=339	=339	=339
8BB'\L	(24cc/LL	4an\	.
.	24dd/	.	.
.	24cc/JJ	.	.
8B'\	8b'/L)	.	.
8B'\J	8ff#'/J	8a\	.
=340	=340	=340	=340
8E\L	8ee/	8g\	.
8B\	8a'\L 8ff#	8ryy	.
8B\J	8b'\J 8gg	8ryy	.
*	*v	*v	*
=341	=341	=341
8AA\L	((8dd\L [8ee 8bb	.
8E\	8cc\)) 8ee] 8aa	.
8E\J	8a'\J 8cc 8ff#	.
=342	=342	=342
8BB^\L	8cc\L 8ee 8aa	.
8E\ 8B	16b'\L 16gg	.
.	16ff#'\J	.
8E\J 8B	8g'\J 8ee	.
=343	=343	=343
16BB'\LL 16D#X 16F# 16B	16f#'\LL 16dd#X	f
16BB'\J 16D# 16F# 16B	16f#'\J 16ee	.
8BB'\ 8D# 8F# 8B	8f#'\ 8ff#	.
8BB'\J 8D# 8F# 8B	8b\J 8dd# 8ff# 8bb	.
!!LO:LB:g=original	!	!
=344||	=344||	=344||
*k[f#c#g#d#]	*k[f#c#g#d#]	*
*E:	*E:	*
!	!LO:TX:a:B:t=CODA.	!
8EE'/ 8E	8b'\ 8ee 8gg#	ff
4E^\ 4G# 4B 4e	4b'\ 4ee 4gg# 4bb	.
=345	=345	=345
16E\LL 16G# 16B 16e	16ee\LL 16ccc#	.
16E\JJ 16G# 16B 16e	16bb\	.
8E\L 8G# 8B 8e	16b\ 16aa	.
.	16gg#\	.
8E\J 8G# 8B 8e	16a\ 16ff#	.
.	16ee\JJ	.
=346	=346	=346
8FF#/L 8F#	8ee\L 8ccc# 8eee	.
8GG#/ 8G#	8dd#\ 8bb 8ddd#	.
8AA/J 8A	8cc#\J 8aa 8ccc#	.
=347	=347	=347
16BB'\LL 16B	16dd#'\LL 16bb 16ddd#	.
16BB'\J 16B	16cc#'\J 16aa 16ccc#	.
8BB'\ 8B	8b'\ 8dd# 8bb	.
8BBB'\J 8BB	8b'\J 8dd# 8aa	.
=348	=348	=348
8EE/ 8E	8b'\ 8ee 8gg#	ff
4E^\ 4G# 4B 4e	4b\ 4ee 4gg# 4bb	.
=349	=349	=349
16E\LL 16G# 16B 16e	16ee\LL 16ccc#	.
16E\JJ 16G# 16B 16e	16bb\	.
8E\L 8G# 8B 8e	16b\ 16aa	.
.	16gg#\	.
8E\J 8G# 8B 8e	16a\ 16ff#	.
.	16ee\JJ	.
=350	=350	=350
8FF#/L 8F#	8ee\L 8ccc# 8eee	.
8GG#/ 8G#	8dd#\ 8bb 8ddd#	.
8AA/J 8A	8cc#\J 8aa 8ccc#	.
=351	=351	=351
16BB\LL 16B	16dd#\LL 16bb 16ddd#	.
16BB\J 16B	16cc#\J 16aa 16ccc#	.
8BB\ 8B	8b\ 8dd# 8bb	.
8BBB\J 8BB	8b\J 8dd# 8aa	.
!!LO:LB:g=original	!	!
=352	=352	=352
8EE/ 8E	16b\LL 16ee 16gg#	.
.	16bb\	.
8C#\L	16ee\ 16aa#X	.
.	16bb\	.
8D#\J	16b\ 16ff#	.
.	16aan\JJ	.
=353	=353	=353
8E\L	16ee\LL 16gg#	.
.	16bb\	.
8C#\	16ee\ 16aa#X	.
.	16bb\	.
8D#\J	16b\ 16ff#	.
.	16aan\JJ	.
=354	=354	=354
8E\L	16ee\LL 16ggn	.
.	16bb\	.
8C#\	16ee\ 16aa#X	.
.	16bb\	.
8D#\J	16b\ 16ff#	.
.	16aan\JJ	.
=355	=355	=355
8E/L	16b\LL 16ee 16aa	.
.	16ggn\	.
8AA/	16ccn\ 16ff#	.
.	16gg\	.
8BB/J	16gn\ 16ddn	.
.	16ffn\JJ	.
=356	=356	=356
8Cn/L	16ccn\LL 16ee	.
.	16ggn\	.
8AA/	16cc\ 16ff#X	.
.	16gg\	.
8BB/J	16gn\ 16ddn	.
.	16ffn\JJ	.
=357	=357	=357
8Cn/L	16ccn\LL 16ee	.
.	16ggn\	.
8AA/	16cc\ 16ff#X	.
.	16gg\	.
8BB/J	16gn\ 16ddn	.
.	16ffn\JJ	.
!!LO:LB:g=original	!	!
=358	=358	=358
8Cn/L	16ccn\LL 16ee	.
.	16ggn\	.
8AA/	16cc\ 16ff#X	.
.	16aa\	.
8BB/J	16ddn\ 16gg	.
.	16ffn\JJ	.
=359	=359	=359
8Cn/	16ee\LL	.
.	16ccn\	.
8B-X^\L	16ddn\	.
.	16ee\	.
16A\L	16ffn\	.
16Gn\JJ	16ggn\JJ	.
=360	=360	=360
8Fn\L	16ffn\LL 16aa	.
.	16cccn\	.
8Dn\	16ff\ 16bb	.
.	16ccc\	.
8E\J	16ccn\ 16ggn	.
.	16bb-X\JJ	.
=361	=361	=361
8Fn\L	16ffn\LL 16aa	.
.	16cccn\	.
8Dn\	16ff\ 16bbn	.
.	16ccc\	.
8E\J	16ccn\ 16ggn	.
.	16bb-X\JJ	.
=362	=362	=362
8Fn\L	16ffn\LL 16aa	.
.	16cccn\	.
8Dn\	16ff\ 16bb	.
.	16dddn\	.
8E\J	16ggn\ 16ccc	.
.	16bb-X\JJ	.
=363	=363	=363
8Fn\L	16aa\LL	.
.	16a\ 16aa	.
8Dn\	16b\ 16bbn	.
.	16cc#X\ 16ccc#X	.
8AA\J	16ddn\ 16dddn	.
.	16ee\JJ 16eee	.
!!LO:PB:g=original	!	!
=364	=364	=364
8Dn/L	16ffn\LL 16fffn	.
.	16eee\	.
8BB/	16aa\ 16dddn	.
.	16fff\	.
8C#/J	16aa\ 16eee	.
.	16gggn\JJ	.
=365	=365	=365
8Dn/L	16aa\LL 16fffn	.
.	16eee\	.
8BB/	16aa\ 16dddn	.
.	16fff\	.
8C#/J	16aa\ 16eee	.
.	16gggn\JJ	.
=366	=366	=366
8Dn\L	16aa\LL 16fffn	.
.	16eee\	.
8Fn\ 8A 8dn	16gggn\	.
.	16fff\	.
8F\J 8A 8d	16eee\	.
.	16dddn\JJ	.
=367	=367	=367
8D#X\L	16cccn\LL	.
.	16bb\	.
8A\ 8cn 8f#X	16aa\	.
.	16bb\	.
8A\J 8c 8f#	16ccc\	.
.	16aa\JJ	.
=368	=368	=368
8E^\L 8e	8gg#\L	.
8C#X^\ 8c#X	8ee\ 8aa	.
8Dn^\J 8dn	8a\J 8ddn 8ff#X	.
=369	=369	=369
8BB^\L 8B	8gn\L 8ddn 8ggn	.
8Cn^\ 8cn	8g\ 8ccn 8ee	.
8AA^\J 8A	8fn\J 8cc 8ffn	.
=370	=370	=370
8BB-X/L 8B-X	8fn^/L 8b-X 8ddn	.
8GGn/ 8Gn	8e-X^/ 8b- 8ee-X	.
8AA-X/J 8A-X	8e-^/J 8a-X 8ccn	.
!!LO:LB:g=original	!	!
=371	=371	=371
8FFn/L 8Fn	8d-X^/L 8a-X 8dd-X	.
8FF#X/ 8F#X	8c#^/ 8f#X 8a#X	.
8DD#X/J 8D#X	8B^/J 8f# 8b	.
=372	=372	=372
8EE\L	8r	ff
8B\	8f##X'/L 8a#X	.
8B\J	8g#'/J 8b	.
=373	=373	=373
8BB\L	(24a\LL 24ccn	.
.	24ddn\	.
.	24cc\JJ	.
8B\ 8d#	8a'\L) 8b	.
8B\J 8d#	8a'\J 8b 8ff#	.
=374	=374	=374
8E\L	8g#'/L 8b 8ee	.
8B\	8f##X'/ 8a#X	.
8B\J	8g#'/J 8b	.
=375	=375	=375
8BB\L	(24a\LL 24ccn	.
.	24ddn\	.
.	24cc\JJ	.
8B\ 8d#	8a'\L) 8b	.
8B\J 8d#	8a'\J 8b 8ff#	.
=376	=376	=376
8E\L	8g#'\L 8ee	.
8e\	8a'\ 8ff#	.
8e\J	8b'\J 8gg#	.
=377	=377	=377
8AA^\L	8ddn'\L 8bb	.
8A\	16ccn'\L 16aa	.
.	16b'\J 16gg#	.
8A\J	8a'\J 8ff#	.
!!LO:LB:g=original	!	!
=378	=378	=378
8BB^\L	8ccn'\L 8aa	.
8B\	16b'\L 16gg#	.
.	16a'\J 16ff#	.
8B\J	8g#'\J 8ee	.
=379	=379	=379
16BB'\LL 16B	16dd#'\LL 16ff#	.
16BB'\J 16B	16ee'\J 16gg#	.
8BB'\ 8B	8ff#'\ 8aa	.
8BB'^\J 8B	8b'\J 8dd# 8ff#	.
=380	=380	=380
8E^\ 8G# 8B	8b\ 8ee 8gg#	.
8B\L	8f##X'/L 8a#X	.
8B\J	8g#'/J 8b	.
=381	=381	=381
!	!LO:TUP:a	!
8BB\L	(24a\LL 24ccn	.
.	24ddn\	.
.	24cc\JJ	.
8B\ 8d#	8a'\L) 8b	.
8B\J 8d#	8a'\J 8b 8ff#	.
=382	=382	=382
8E\L	8g#'/L 8b 8ee	.
8B\	8f##X'/ 8a#X	.
8B\J	8g#'/J 8b	.
=383	=383	=383
!	!LO:TUP:a	!
8BB\L	(24a\LL 24cc#	.
.	24ddn\	.
.	24cc\JJ	.
8B\ 8d#	8a'\L) 8b	.
8B\J 8d#	8a'\J 8b 8ff#	.
=384	=384	=384
8E\L	8g#'\L 8ee	.
8e\	8a'\ 8ff#	.
8e\J	8b'\J 8gg#	.
!!LO:LB:g=original	!	!
=385	=385	=385
8AA^\L	8ddn'\L 8bb	.
8A\	16ccn'\L 16aa	.
.	16b'\J 16gg#	.
8A\J	8a'\J 8ff#	.
=386	=386	=386
8BB^\L	8ccn'\L 8aa	.
8B\	16b'\L 16gg#	.
.	16a'\J 16ff#	.
8B\J	8g#'\J 8ee	.
=387	=387	=387
16BB\LL 16B	16dd#'\LL 16ff#	.
16BB\J 16B	16ee'\J 16gg#	.
8BB\J 8B	8ff#'\ 8aa	.
8BBB/ 8BB	8b'\J 8dd# 8ff# 8bb	sf
=388	=388	=388
8EE/ 8E	16b\LL 16ee 16gg#	sf
.	16b\	.
16E\LL 16G#	16ee\	.
16B\	16gg#\	.
16E\ 16G#	16bb\	.
16B\JJ	16gg#\JJ	.
=389	=389	=389
16E\LL 16G#	16ee\LL	.
16B\	16b\	.
16E\ 16G#	16ee\	.
16B\	16gg#\	.
16E\ 16G#	16bb\	.
16B\JJ	16gg#\JJ	.
=390	=390	=390
16E\LL 16G#	16ee\LL	.
16B\	16b\	.
16E\ 16G#	16ee\	.
16B\	16gg#\	.
16E\ 16G#	16bb\	.
16B\JJ	16gg#\JJ	.
=391	=391	=391
16E\LL 16G#	16ee\LL	.
16B\	16b\	.
16E\ 16G#	16ee\	.
16B\	16gg#\	.
16E\ 16G#	16bb\	.
16B\JJ	16aa\JJ	.
=392	=392	=392
16E\LL 16G#	16gg#\LL	.
16B\	16ee\	.
16E\ 16G#	16gg#\	.
16B\	16bb\	.
16E\ 16G#	16eee\	.
16B\JJ	16bb\JJ	.
=393	=393	=393
16E\LL 16G#	16gg#\LL	.
16B\	16ee\	.
16E\ 16G#	16gg#\	.
16B\	16bb\	.
16E\ 16G#	16eee\	.
16B\JJ	16bb\JJ	.
=394	=394	=394
16E\LL 16G#	16gg#\LL	.
16B\	16ee\	.
16E\ 16G#	16gg#\	.
16B\	16bb\	.
16E\ 16G#	16eee\	.
16B\JJ	16bb\JJ	.
=395	=395	=395
16E\LL 16G#	16gg#\LL	.
16B\	16ee\	.
16E\ 16G#	16gg#\	.
16B\	16bb\	.
16E\ 16G#	16eee\	.
16B\JJ	16fff#\JJ	.
=396	=396	=396
4E\ 4G#	8ggg#\	.
.	16gg#\LL	.
.	16b\	.
16E\LL 16G# 16B 16e	16g#\	.
16E\JJ 16G# 16B 16e	16b\JJ	.
!!LO:LB:g=original	!	!
=397	=397	=397
!	!LO:TX:b:i:t=(Ad un segno di Akebar, le donzelle Si allontanano.)	!
!	!LO:TX:b:t=(Na znak Akebara, dziewczęta oddalają się.)	!
4E\ 4G# 4B 4e	16gg#\LL	.
.	16b\	.
.	16g#\	.
.	16b\	.
16E\LL 16G# 16B 16e	16gg#\	.
16E\JJ 16G# 16B 16e	16b\JJ	.
=398	=398	=398
4E\ 4G# 4B 4e	16g#\LL	.
.	16b\	.
.	16gg#\	.
.	16b\	.
16E\LL 16G# 16B 16e	16g#\	.
16E\JJ 16G# 16B 16e	16b\JJ	.
=399	=399	=399
8E\ 8G# 8B 8e	8gg#\	.
!	!LO:TUP:b	!
8B\L	24e/LL	.
.	24g#/	.
.	24b/JJ	.
!	!LO:TUP:a	!
8G#\J	24ee\LL	.
.	24gg#\	.
.	24bb\JJ	.
=400	=400	=400
8E\	8ee\ 8gg# 8bb 8eee	.
8r	8r	.
8r	8r	.
=401	=401	=401
8E\ 8G# 8B 8e	8g#\ 8b 8ee 8gg#	.
8r	8r	.
8r	8r	.
=402	=402	=402
8E\ 8G# 8B 8e	8g#\ 8b 8ee	.
8r	8r	.
8r	8r	.
=403	=403	=403
8E\ 8G# 8B 8e	8b\ 8ee 8gg# 8bb	.
8r	8r	.
8r	8r	.
=404	=404	=404
4.EE;</ 4.E	4.G#;/ 4.B 4.e	.
==	==	==
*-	*-	*-
!!!system-decoration: {(s1,s2)}
!!!RDF**kern: > = above
!!!RDF**kern: < = below
!!!RDF**kern: N = linked
!!!ENC: Arkadiusz Malec
!!!END: 2022-09-05
!!!ENC: Natalia Wrzos
!!!END: 2022-10-15
!!!YEC: Copyright 2022 Narodowy Instytut Fryderyka Chopina (https://polishscores.org)
!!!YEM: License CC-BY-4.0 (https://creativecommons.org/licenses/by/4.0)
